; generated by PrusaSlicer 2.5.0+win64 on 2023-04-13 at 15:55:17 UTC

; 

; external perimeters extrusion width = 0.63mm
; perimeters extrusion width = 0.66mm
; infill extrusion width = 0.66mm
; solid infill extrusion width = 0.66mm
; top infill extrusion width = 0.60mm
; support material extrusion width = 0.54mm
; first layer extrusion width = 0.63mm

; external perimeters extrusion width = 0.63mm
; perimeters extrusion width = 0.66mm
; infill extrusion width = 0.66mm
; solid infill extrusion width = 0.66mm
; top infill extrusion width = 0.60mm
; support material extrusion width = 0.54mm
; first layer extrusion width = 0.63mm

M201 X500 Y500 Z100 E5000 ; sets maximum accelerations, mm/sec^2
M203 X500 Y500 Z10 E60 ; sets maximum feedrates, mm / sec
M204 P500 R1000 T500 ; sets acceleration (P, T) and retract acceleration (R), mm/sec^2
M205 X8.00 Y8.00 Z0.40 E5.00 ; sets the jerk limits, mm/sec
M205 S0 T0 ; sets the minimum extruding and travel feed rate, mm/sec
M107
;TYPE:Custom
G90 ; use absolute coordinates
M83 ; extruder relative mode
M104 S150 ; set temporary nozzle temp to prevent oozing during homing
M140 S60 ; set final bed temp
G4 S30 ; allow partial nozzle warmup
G28 ; home all axis and restore leveling
G1 Z50 F240
G1 X2.0 Y10 F3000
M104 S210 ; set final nozzle temp
M190 S60 ; wait for bed temp to stabilize
M109 S210 ; wait for nozzle temp to stabilize
G1 Z0.28 F240
G92 E0
G1 X2.0 Y140 E10 F1500 ; prime the nozzle
G1 X2.3 Y140 F5000
G92 E0
G1 X2.3 Y10 E10 F1200 ; prime the nozzle
G92 E0
G21 ; set units to millimeters
G90 ; use absolute coordinates
M83 ; use relative distances for extrusion
; Filament gcode
M107
;LAYER_CHANGE
;Z:0.3
;HEIGHT:0.3
;BEFORE_LAYER_CHANGE
G92 E0
;0.3


G1 E-.8 F1800
G1 Z.3 F9000
;AFTER_LAYER_CHANGE
;0.3
G1 X88.919 Y83.294
G1 E.8 F1800
M204 S500
;TYPE:Skirt/Brim
;WIDTH:0.63
G1 F1200
G1 X90.969 Y82.646 E.15168
G1 X130.969 Y82.646 E2.82189
G1 X132.599 Y83.04 E.11831
G1 X133.868 Y84.136 E.11831
G1 X134.534 Y86.211 E.15376
G1 X134.081 Y141.428 E3.89551
G1 X133.556 Y143.26 E.13441
G1 X123.316 Y159.976 E1.38293
G1 X122.128 Y161.16 E.11831
G1 X120.276 Y161.679 E.13574
G1 X100.755 Y161.679 E1.37714
G1 X99.125 Y161.284 E.11831
G1 X97.714 Y159.976 E.13574
G1 X87.475 Y143.26 E1.38293
G1 X86.95 Y141.397 E.13652
G1 X87.403 Y86.181 E3.89551
G1 X87.812 Y84.554 E.11831
G1 X88.859 Y83.362 E.11196
; printing object axleback.STL id:0 copy 0
;WIPE_START
G1 F7200
G1 X90.969 Y82.646 E-.52905
G1 X91.941 Y82.646 E-.23095
;WIPE_END
G1 E-.04 F1800
G1 X123.687 Y149.585 F9000
G1 E.8 F1800
;TYPE:Support material
G1 F1200
G1 X121.981 Y149.585 E.12033
G1 X121.981 Y152.996 E.24066
G1 X120.276 Y152.996 E.12033
G1 X120.276 Y158.113 E.36099
G1 X100.755 Y158.113 E1.37714
G1 X100.755 Y152.996 E.36099
G1 X99.049 Y152.996 E.12033
G1 X99.049 Y149.585 E.24066
G1 X97.343 Y149.585 E.12033
G1 X97.343 Y142.09 E.52873
G1 X123.687 Y142.09 E1.85846
G1 X123.687 Y149.5 E.52275
G1 X123.084 Y149.33 F9000
G1 F1200
G1 X123.084 Y142.599 E.47486
G1 X122.456 Y142.599 E.04434
G1 X122.456 Y149.076 E.45691
G1 X121.828 Y149.076 E.04434
G1 X121.828 Y142.599 E.45691
G1 X121.199 Y142.599 E.04434
G1 X121.199 Y152.487 E.69757
G1 X120.571 Y152.487 E.04434
G1 X120.571 Y142.599 E.69757
G1 X119.942 Y142.599 E.04434
G1 X119.942 Y152.487 E.69757
G1 X119.767 Y152.487 E.01239
G1 X119.767 Y157.604 E.36099
G1 X119.314 Y157.604 E.03194
G1 X119.314 Y142.599 E1.05856
G1 X118.685 Y142.599 E.04434
G1 X118.685 Y157.604 E1.05856
G1 X118.057 Y157.604 E.04434
G1 X118.057 Y142.599 E1.05856
G1 X117.428 Y142.599 E.04434
G1 X117.428 Y157.604 E1.05856
G1 X116.8 Y157.604 E.04434
G1 X116.8 Y142.599 E1.05856
G1 X116.171 Y142.599 E.04434
G1 X116.171 Y157.604 E1.05856
G1 X115.543 Y157.604 E.04434
G1 X115.543 Y142.599 E1.05856
G1 X114.914 Y142.599 E.04434
G1 X114.914 Y157.604 E1.05856
G1 X114.286 Y157.604 E.04434
G1 X114.286 Y142.599 E1.05856
G1 X113.658 Y142.599 E.04434
G1 X113.657 Y157.604 E1.05856
G1 X113.029 Y157.604 E.04434
G1 X113.029 Y142.599 E1.05856
G1 X112.401 Y142.599 E.04434
G1 X112.401 Y157.604 E1.05856
G1 X111.772 Y157.604 E.04434
G1 X111.772 Y142.599 E1.05856
G1 X111.144 Y142.599 E.04434
G1 X111.144 Y157.604 E1.05856
G1 X110.515 Y157.604 E.04434
G1 X110.515 Y142.599 E1.05856
G1 X109.887 Y142.599 E.04434
G1 X109.887 Y157.604 E1.05856
G1 X109.258 Y157.604 E.04434
G1 X109.258 Y142.599 E1.05856
G1 X108.63 Y142.599 E.04434
G1 X108.63 Y157.604 E1.05856
G1 X108.001 Y157.604 E.04434
G1 X108.001 Y142.599 E1.05856
G1 X107.373 Y142.599 E.04434
G1 X107.373 Y157.604 E1.05856
G1 X106.744 Y157.604 E.04434
G1 X106.744 Y142.599 E1.05856
G1 X106.116 Y142.599 E.04434
G1 X106.116 Y157.604 E1.05856
G1 X105.487 Y157.604 E.04434
G1 X105.487 Y142.599 E1.05856
G1 X104.859 Y142.599 E.04434
G1 X104.859 Y157.604 E1.05856
G1 X104.231 Y157.604 E.04434
G1 X104.231 Y142.599 E1.05856
G1 X103.602 Y142.599 E.04434
G1 X103.602 Y157.604 E1.05856
G1 X102.974 Y157.604 E.04434
G1 X102.974 Y142.599 E1.05856
G1 X102.345 Y142.599 E.04434
G1 X102.345 Y157.604 E1.05856
G1 X101.717 Y157.604 E.04434
G1 X101.717 Y142.599 E1.05856
G1 X101.088 Y142.599 E.04434
G1 X101.088 Y152.487 E.69757
G1 X100.46 Y152.487 E.04434
G1 X100.46 Y142.599 E.69757
G1 X99.831 Y142.599 E.04434
G1 X99.831 Y152.487 E.69757
G1 X99.558 Y152.487 E.01926
G1 X99.558 Y149.076 E.24066
G1 X99.203 Y149.076 E.02507
G1 X99.203 Y142.599 E.45691
G1 X98.574 Y142.599 E.04434
G1 X98.574 Y149.076 E.45691
G1 X97.946 Y149.076 E.04434
G1 X97.946 Y142.345 E.47486
;WIPE_START
G1 F7200
G1 X97.946 Y145.545 E-.76
;WIPE_END
G1 E-.04 F1800
G1 X91.614 Y140.298 F9000
G1 E.8 F1800
;TYPE:Perimeter
;WIDTH:0.866572
G1 F1200
G1 X91.614 Y139.496 E.08026
G1 X129.416 Y139.496 E3.78225
G1 X129.416 Y140.298 E.08026
G1 X91.704 Y140.298 E3.77324
;WIPE_START
G1 F7200
G1 X91.614 Y139.496 E-.19172
G1 X94.007 Y139.496 E-.56828
;WIPE_END
G1 E-.04 F1800
G1 X90.93 Y140.982 F9000
G1 E.8 F1800
;TYPE:External perimeter
;WIDTH:0.63
G1 F1200
G1 X90.93 Y138.812 E.15309
G1 X130.1 Y138.812 E2.76333
G1 X130.1 Y140.982 E.15309
G1 X91.02 Y140.982 E2.75698
G1 X91.221 Y140.457 F9000
; stop printing object axleback.STL id:0 copy 0
; printing object axleback.STL id:1 copy 0
;WIPE_START
G1 F7200
G1 X90.93 Y138.812 E-.51582
G1 X91.958 Y138.812 E-.24418
;WIPE_END
G1 E-.04 F1800
G1 X124.14 Y97.399 F9000
G1 E.8 F1800
;TYPE:Support material
;WIDTH:0.63
G1 F1200
G1 X122.435 Y97.399 E.12033
G1 X122.435 Y100.811 E.24066
G1 X120.729 Y100.811 E.12033
G1 X120.729 Y105.928 E.36099
G1 X101.208 Y105.928 E1.37714
G1 X101.208 Y100.811 E.36099
G1 X99.503 Y100.811 E.12033
G1 X99.503 Y97.399 E.24066
G1 X97.797 Y97.399 E.12033
G1 X97.797 Y89.904 E.52873
G1 X124.14 Y89.904 E1.85846
G1 X124.14 Y97.314 E.52275
G1 X123.538 Y97.145 F9000
G1 F1200
G1 X123.538 Y90.414 E.47486
G1 X122.91 Y90.414 E.04434
G1 X122.91 Y96.89 E.45691
G1 X122.281 Y96.89 E.04434
G1 X122.281 Y90.414 E.45691
G1 X121.653 Y90.414 E.04434
G1 X121.653 Y100.302 E.69757
G1 X121.024 Y100.302 E.04434
G1 X121.024 Y90.414 E.69757
G1 X120.396 Y90.414 E.04434
G1 X120.396 Y100.302 E.69757
G1 X120.22 Y100.302 E.01239
G1 X120.22 Y105.418 E.36099
G1 X119.767 Y105.418 E.03194
G1 X119.767 Y90.414 E1.05856
G1 X119.139 Y90.414 E.04434
G1 X119.139 Y105.418 E1.05856
G1 X118.51 Y105.418 E.04434
G1 X118.51 Y90.414 E1.05856
G1 X117.882 Y90.414 E.04434
G1 X117.882 Y105.418 E1.05856
G1 X117.253 Y105.418 E.04434
G1 X117.253 Y90.414 E1.05856
G1 X116.625 Y90.414 E.04434
G1 X116.625 Y105.418 E1.05856
G1 X115.996 Y105.418 E.04434
G1 X115.996 Y90.414 E1.05856
G1 X115.368 Y90.414 E.04434
G1 X115.368 Y105.418 E1.05856
G1 X114.74 Y105.418 E.04434
G1 X114.74 Y90.414 E1.05856
G1 X114.111 Y90.414 E.04434
G1 X114.111 Y105.418 E1.05856
G1 X113.483 Y105.418 E.04434
G1 X113.483 Y90.414 E1.05856
G1 X112.854 Y90.414 E.04434
G1 X112.854 Y105.418 E1.05856
G1 X112.226 Y105.418 E.04434
G1 X112.226 Y90.414 E1.05856
G1 X111.597 Y90.414 E.04434
G1 X111.597 Y105.418 E1.05856
G1 X110.969 Y105.418 E.04434
G1 X110.969 Y90.414 E1.05856
G1 X110.34 Y90.414 E.04434
G1 X110.34 Y105.418 E1.05856
G1 X109.712 Y105.418 E.04434
G1 X109.712 Y90.414 E1.05856
G1 X109.083 Y90.414 E.04434
G1 X109.083 Y105.418 E1.05856
G1 X108.455 Y105.418 E.04434
G1 X108.455 Y90.414 E1.05856
G1 X107.826 Y90.414 E.04434
G1 X107.826 Y105.418 E1.05856
G1 X107.198 Y105.418 E.04434
G1 X107.198 Y90.414 E1.05856
G1 X106.569 Y90.414 E.04434
G1 X106.569 Y105.418 E1.05856
G1 X105.941 Y105.418 E.04434
G1 X105.941 Y90.414 E1.05856
G1 X105.313 Y90.414 E.04434
G1 X105.313 Y105.418 E1.05856
G1 X104.684 Y105.418 E.04434
G1 X104.684 Y90.414 E1.05856
G1 X104.056 Y90.414 E.04434
G1 X104.056 Y105.418 E1.05856
G1 X103.427 Y105.418 E.04434
G1 X103.427 Y90.414 E1.05856
G1 X102.799 Y90.414 E.04434
G1 X102.799 Y105.418 E1.05856
G1 X102.17 Y105.418 E.04434
G1 X102.17 Y90.414 E1.05856
G1 X101.542 Y90.414 E.04434
G1 X101.542 Y100.302 E.69757
G1 X100.913 Y100.302 E.04434
G1 X100.913 Y90.414 E.69757
G1 X100.285 Y90.414 E.04434
G1 X100.285 Y100.302 E.69757
G1 X100.012 Y100.302 E.01926
G1 X100.012 Y96.89 E.24066
G1 X99.656 Y96.89 E.02507
G1 X99.656 Y90.414 E.45691
G1 X99.028 Y90.414 E.04434
G1 X99.028 Y96.89 E.45691
G1 X98.399 Y96.89 E.04434
G1 X98.399 Y90.159 E.47486
;WIPE_START
G1 F7200
G1 X98.399 Y93.359 E-.76
;WIPE_END
G1 E-.04 F1800
G1 X92.068 Y88.113 F9000
G1 E.8 F1800
;TYPE:Perimeter
;WIDTH:0.866572
G1 F1200
G1 X92.068 Y87.31 E.08026
G1 X129.87 Y87.31 E3.78225
G1 X129.87 Y88.113 E.08026
G1 X92.158 Y88.113 E3.77324
;WIPE_START
G1 F7200
G1 X92.068 Y87.31 E-.19172
G1 X94.46 Y87.31 E-.56828
;WIPE_END
G1 E-.04 F1800
G1 X91.384 Y88.796 F9000
G1 E.8 F1800
;TYPE:External perimeter
;WIDTH:0.63
G1 F1200
G1 X91.384 Y86.626 E.15309
G1 X130.554 Y86.626 E2.76333
G1 X130.554 Y88.796 E.15309
G1 X91.474 Y88.796 E2.75698
G1 X91.674 Y88.271 F9000
; stop printing object axleback.STL id:1 copy 0
M106 S255
;LAYER_CHANGE
;Z:0.46
;HEIGHT:0.16
;BEFORE_LAYER_CHANGE
G92 E0
;0.46


;WIPE_START
G1 F7200
G1 X91.384 Y86.626 E-.51582
G1 X92.412 Y86.626 E-.24418
;WIPE_END
G1 E-.04 F1800
G1 Z.46 F9000
;AFTER_LAYER_CHANGE
;0.46
M104 S205 ; set temperature
G1 X92.412 Y82.646
G1 E.8 F1800
;TYPE:Skirt/Brim
;WIDTH:0.63
G1 F1918
G1 X130.969 Y82.646 E1.52777
G1 X132.599 Y83.04 E.06645
G1 X133.868 Y84.136 E.06645
G1 X134.534 Y86.211 E.08636
G1 X134.081 Y141.428 E2.18796
G1 X133.556 Y143.26 E.07549
G1 X123.316 Y159.976 E.77674
G1 X122.128 Y161.16 E.06645
G1 X120.276 Y161.679 E.07624
G1 X100.755 Y161.679 E.77349
G1 X99.125 Y161.284 E.06645
G1 X97.714 Y159.976 E.07624
G1 X87.475 Y143.26 E.77674
G1 X86.95 Y141.397 E.07668
G1 X87.403 Y86.181 E2.18796
G1 X87.812 Y84.554 E.06645
G1 X88.919 Y83.294 E.06645
G1 X90.969 Y82.646 E.08519
G1 X92.322 Y82.646 E.05362
; printing object axleback.STL id:0 copy 0
;WIPE_START
G1 F7200
G1 X95.522 Y82.646 E-.76
;WIPE_END
G1 E-.04 F1800
G1 X91.572 Y140.341 F9000
G1 E.8 F1800
;TYPE:Perimeter
;WIDTH:0.921505
G1 F1918
G1 X91.572 Y139.454 E.05236
G1 X129.459 Y139.454 E2.2359
G1 X129.459 Y140.341 E.05236
G1 X91.662 Y140.341 E2.23059
;WIPE_START
G1 F7200
G1 X91.572 Y139.454 E-.21178
G1 X93.88 Y139.454 E-.54822
;WIPE_END
G1 E-.04 F1800
G1 X90.83 Y141.082 F9000
G1 E.8 F1800
;TYPE:External perimeter
;WIDTH:0.629999
G1 F1500
G1 X90.83 Y138.712 E.09391
G1 X130.2 Y138.712 E1.55998
G1 X130.2 Y141.082 E.09391
G1 X90.92 Y141.082 E1.55642
G1 X91.12 Y140.557 F9000
; stop printing object axleback.STL id:0 copy 0
; printing object axleback.STL id:1 copy 0
;WIPE_START
G1 F7200
G1 X90.83 Y138.712 E-.56328
G1 X91.658 Y138.712 E-.19672
;WIPE_END
G1 E-.04 F1800
G1 X92.025 Y88.155 F9000
G1 E.8 F1800
;TYPE:Perimeter
;WIDTH:0.921505
G1 F1918
G1 X92.025 Y87.268 E.05236
G1 X129.912 Y87.268 E2.2359
G1 X129.912 Y88.155 E.05236
G1 X92.115 Y88.155 E2.23059
;WIPE_START
G1 F7200
G1 X92.025 Y87.268 E-.21178
G1 X94.333 Y87.268 E-.54822
;WIPE_END
G1 E-.04 F1800
G1 X91.284 Y88.896 F9000
G1 E.8 F1800
;TYPE:External perimeter
;WIDTH:0.629999
G1 F1500
G1 X91.284 Y86.526 E.09391
G1 X130.654 Y86.526 E1.55998
G1 X130.654 Y88.896 E.09391
G1 X91.374 Y88.896 E1.55642
G1 X91.573 Y88.371 F9000
; stop printing object axleback.STL id:1 copy 0
;LAYER_CHANGE
;Z:0.62
;HEIGHT:0.16
;BEFORE_LAYER_CHANGE
G92 E0
;0.62


;WIPE_START
G1 F7200
G1 X91.284 Y86.526 E-.56328
G1 X92.112 Y86.526 E-.19672
;WIPE_END
G1 E-.04 F1800
G1 Z.62 F9000
;AFTER_LAYER_CHANGE
;0.62
; printing object axleback.STL id:0 copy 0
G1 X91.572 Y140.341
G1 E.8 F1800
;TYPE:Perimeter
;WIDTH:0.921505
G1 F1026
G1 X91.572 Y139.454 E.05236
G1 X129.459 Y139.454 E2.2359
G1 X129.459 Y140.341 E.05236
G1 X91.662 Y140.341 E2.23059
;WIPE_START
G1 F7200
G1 X91.572 Y139.454 E-.21178
G1 X93.88 Y139.454 E-.54822
;WIPE_END
G1 E-.04 F1800
G1 X90.83 Y141.082 F9000
G1 E.8 F1800
;TYPE:External perimeter
;WIDTH:0.629999
G1 F1026
G1 X90.83 Y138.712 E.09391
G1 X130.2 Y138.712 E1.55998
G1 X130.2 Y141.082 E.09391
G1 X90.92 Y141.082 E1.55642
G1 X91.12 Y140.557 F9000
; stop printing object axleback.STL id:0 copy 0
; printing object axleback.STL id:1 copy 0
;WIPE_START
G1 F7200
G1 X90.83 Y138.712 E-.56328
G1 X91.658 Y138.712 E-.19672
;WIPE_END
G1 E-.04 F1800
G1 X92.025 Y88.155 F9000
G1 E.8 F1800
;TYPE:Perimeter
;WIDTH:0.921505
G1 F1026
G1 X92.025 Y87.268 E.05236
G1 X129.912 Y87.268 E2.2359
G1 X129.912 Y88.155 E.05236
G1 X92.115 Y88.155 E2.23059
;WIPE_START
G1 F7200
G1 X92.025 Y87.268 E-.21178
G1 X94.333 Y87.268 E-.54822
;WIPE_END
G1 E-.04 F1800
G1 X91.284 Y88.896 F9000
G1 E.8 F1800
;TYPE:External perimeter
;WIDTH:0.629999
G1 F1026
G1 X91.284 Y86.526 E.09391
G1 X130.654 Y86.526 E1.55998
G1 X130.654 Y88.896 E.09391
G1 X91.374 Y88.896 E1.55642
G1 X91.573 Y88.371 F9000
; stop printing object axleback.STL id:1 copy 0
;LAYER_CHANGE
;Z:0.77
;HEIGHT:0.15
;BEFORE_LAYER_CHANGE
G92 E0
;0.77


;WIPE_START
G1 F7200
G1 X91.284 Y86.526 E-.56328
G1 X92.112 Y86.526 E-.19672
;WIPE_END
G1 E-.04 F1800
G1 Z.77 F9000
;AFTER_LAYER_CHANGE
;0.77
; printing object axleback.STL id:0 copy 0
G1 X107.104 Y144.941
G1 E.8 F1800
;TYPE:Support material
;WIDTH:0.54
;HEIGHT:0.47
G1 F2400
G1 X105.398 Y144.941 E.14636
G1 X105.398 Y146.647 E.14636
G1 X107.104 Y146.647 E.14636
G1 X107.104 Y145.017 E.13985
;WIPE_START
G1 F7200
G1 X107.104 Y146.647 E-.38708
G1 X105.534 Y146.647 E-.37292
;WIPE_END
G1 E-.04 F1800
G1 X101.987 Y147.052 F9000
G1 E.8 F1800
G1 F2400
G1 X101.987 Y148.353 E.11165
G1 X119.043 Y148.353 E1.46361
G1 X119.043 Y150.058 E.14636
G1 X101.987 Y150.058 E1.46361
;WIPE_START
G1 F7200
G1 X105.187 Y150.058 E-.76
;WIPE_END
G1 E-.04 F1800
G1 X103.693 Y150.463 F9000
G1 E.8 F1800
G1 F2400
G1 X103.693 Y151.764 E.11165
G1 X117.338 Y151.764 E1.17089
G1 X117.338 Y153.47 E.14636
G1 X103.693 Y153.47 E1.17089
G1 X103.693 Y155.175 E.14636
G1 X117.338 Y155.175 E1.17089
G1 X115.632 Y144.941 F9000
G1 F2400
G1 X113.927 Y144.941 E.14636
G1 X113.927 Y146.647 E.14636
G1 X115.632 Y146.647 E.14636
G1 X115.632 Y145.017 E.13985
G1 X120.749 Y146.647 F9000
G1 F2400
G1 X100.281 Y146.647 E1.75633
G1 X100.281 Y144.941 E.14636
G1 X120.749 Y144.941 E1.75633
G1 X120.749 Y143.236 E.14636
G1 X100.281 Y143.236 E1.75633
G1 X100.281 Y142.028 E.10364
G1 X120.749 Y142.028 E1.75633
G1 X120.749 Y142.983 E.08195
; stop printing object axleback.STL id:0 copy 0
; printing object axleback.STL id:1 copy 0
;WIPE_START
G1 F7200
G1 X120.749 Y142.028 E-.22682
G1 X118.504 Y142.028 E-.53318
;WIPE_END
G1 E-.04 F1800
G1 X117.791 Y102.99 F9000
G1 E.8 F1800
G1 F2400
G1 X104.146 Y102.99 E1.17089
G1 X104.146 Y101.284 E.14636
G1 X117.791 Y101.284 E1.17089
G1 X117.791 Y99.578 E.14636
G1 X104.146 Y99.578 E1.17089
G1 X104.146 Y98.277 E.11165
;WIPE_START
G1 F7200
G1 X104.146 Y99.578 E-.30902
G1 X106.045 Y99.578 E-.45098
;WIPE_END
G1 E-.04 F1800
G1 X102.44 Y97.873 F9000
G1 E.8 F1800
G1 F2400
G1 X119.497 Y97.873 E1.46361
G1 X119.497 Y96.167 E.14636
G1 X102.44 Y96.167 E1.46361
G1 X102.44 Y94.866 E.11165
;WIPE_START
G1 F7200
G1 X102.44 Y96.167 E-.30902
G1 X104.339 Y96.167 E-.45098
;WIPE_END
G1 E-.04 F1800
G1 X107.557 Y92.832 F9000
G1 E.8 F1800
G1 F2400
G1 X107.557 Y94.461 E.13985
G1 X105.852 Y94.461 E.14636
G1 X105.852 Y92.756 E.14636
G1 X107.557 Y92.756 E.14636
G1 X116.086 Y92.756 F9000
G1 F2400
G1 X114.38 Y92.756 E.14636
G1 X114.38 Y94.461 E.14636
