; generated by PrusaSlicer 2.5.0+win64 on 2023-04-11 at 15:36:48 UTC

; 

; external perimeters extrusion width = 0.42mm
; perimeters extrusion width = 0.44mm
; infill extrusion width = 0.44mm
; solid infill extrusion width = 0.44mm
; top infill extrusion width = 0.40mm
; first layer extrusion width = 0.42mm

M107
;TYPE:Custom
G90 ; use absolute coordinates
M83 ; extruder relative mode
M140 S60 ; set final bed temp
M104 S150 ; set temporary nozzle temp to prevent oozing during homing and auto bed leveling
G4 S10 ; allow partial nozzle warmup
G28 ; home all axis
G29 ; auto bed levelling
G1 Z50 F240
G1 X2 Y10 F3000
M104 S215 ; set final nozzle temp
M190 S60 ; wait for bed temp to stabilize
M109 S215 ; wait for nozzle temp to stabilize
G1 Z0.28 F240
G92 E0
G1 Y140 E10 F1500 ; prime the nozzle
G1 X2.3 F5000
G92 E0
G1 Y10 E10 F1200 ; prime the nozzle
G92 E0
G21 ; set units to millimeters
G90 ; use absolute coordinates
M83 ; use relative distances for extrusion
; Filament gcode
M107
;LAYER_CHANGE
;Z:0.2
;HEIGHT:0.2
;BEFORE_LAYER_CHANGE
G92 E0
;0.2


G1 E-.8 F1800
G1 Z.2 F9000
;AFTER_LAYER_CHANGE
;0.2
G1 X84.295 Y84.295
G1 E.8 F1800
M204 S500
;TYPE:Skirt/Brim
;WIDTH:0.42
G1 F1200
G1 X85.205 Y83.385 E.04034
G1 X87.354 Y81.534 E.08894
G1 X87.86 Y81.176 E.01943
G1 X96.108 Y76.415 E.2986
G1 X99.349 Y75.22 E.1083
G1 X102.091 Y74.495 E.08894
G1 X105.238 Y73.968 E.10006
G1 X114.762 Y73.968 E.2986
G1 X115.379 Y74.025 E.01943
G1 X117.909 Y74.495 E.08069
G1 X120.651 Y75.22 E.08893
G1 X123.329 Y76.155 E.08894
G1 X123.892 Y76.415 E.01943
G1 X132.14 Y81.176 E.2986
G1 X134.795 Y83.385 E.1083
G1 X136.615 Y85.205 E.08069
G1 X138.466 Y87.354 E.08894
G1 X138.824 Y87.86 E.01943
G1 X143.585 Y96.108 E.2986
G1 X144.78 Y99.349 E.1083
G1 X145.505 Y102.091 E.08894
G1 X146.032 Y105.238 E.10006
G1 X146.032 Y114.762 E.2986
G1 X145.975 Y115.379 E.01943
G1 X145.505 Y117.909 E.08069
G1 X144.78 Y120.651 E.08893
G1 X143.845 Y123.329 E.08894
G1 X143.585 Y123.892 E.01943
G1 X138.824 Y132.14 E.2986
G1 X136.615 Y134.795 E.1083
G1 X134.602 Y136.793 E.08894
G1 X132.646 Y138.466 E.08069
G1 X132.14 Y138.824 E.01943
G1 X123.892 Y143.585 E.2986
G1 X120.903 Y144.702 E.10006
G1 X118.166 Y145.446 E.08894
G1 X114.762 Y146.032 E.1083
G1 X105.238 Y146.032 E.2986
G1 X104.621 Y145.975 E.01943
G1 X102.091 Y145.505 E.08069
G1 X99.349 Y144.78 E.08893
G1 X96.671 Y143.845 E.08894
G1 X96.108 Y143.585 E.01943
G1 X87.86 Y138.824 E.2986
G1 X85.205 Y136.615 E.1083
G1 X83.385 Y134.795 E.08069
G1 X81.534 Y132.646 E.08894
G1 X81.176 Y132.14 E.01943
G1 X76.415 Y123.892 E.2986
G1 X75.298 Y120.903 E.10006
G1 X74.554 Y118.166 E.08894
G1 X73.968 Y114.762 E.1083
G1 X73.968 Y105.238 E.2986
G1 X74.025 Y104.621 E.01943
G1 X74.495 Y102.091 E.08069
G1 X75.22 Y99.349 E.08893
G1 X76.155 Y96.671 E.08894
G1 X76.415 Y96.108 E.01943
G1 X81.176 Y87.86 E.2986
G1 X83.385 Y85.205 E.1083
G1 X84.253 Y84.338 E.03847
;WIPE_START
G1 F7200
G1 X85.205 Y83.385 E-.3198
G1 X86.609 Y82.176 E-.4402
;WIPE_END
G1 E-.04 F1800
G1 X85.399 Y89.669 F9000
G1 E.8 F1800
;TYPE:Perimeter
;WIDTH:0.419999
G1 F1200
G1 X86.555 Y88.316 E.05579
G1 X88.287 Y86.585 E.07678
G1 X89.669 Y85.399 E.0571
G1 X94.514 Y88.197 E.17541
G1 X94.758 Y88.47 E.01149
G1 X95.005 Y88.667 E.00991
G1 X95.49 Y88.935 E.01735
G1 X95.794 Y89.04 E.01009
G1 X96.34 Y89.13 E.01735
G1 X96.661 Y89.127 E.01009
G1 X97.206 Y89.027 E.01735
G1 X97.508 Y88.916 E.01009
G1 X97.987 Y88.64 E.01735
G1 X98.234 Y88.434 E.01009
G1 X98.592 Y88.012 E.01735
G1 X98.756 Y87.735 E.01009
G1 X98.951 Y87.217 E.01735
G1 X99.012 Y86.901 E.01009
G1 X99.008 Y86.167 E.02303
G1 X98.861 Y85.687 E.01573
G1 X98.861 Y80.092 E.17544
G1 X100.538 Y79.499 E.05579
G1 X102.944 Y78.854 E.07808
G1 X104.693 Y78.529 E.05579
G1 X107.491 Y83.375 E.17544
G1 X107.565 Y83.734 E.01149
G1 X107.681 Y84.028 E.00991
G1 X107.966 Y84.502 E.01735
G1 X108.177 Y84.745 E.01009
G1 X108.605 Y85.096 E.01735
G1 X108.885 Y85.254 E.01009
G1 X109.406 Y85.44 E.01735
G1 X109.723 Y85.495 E.01009
G1 X110.277 Y85.495 E.01735
G1 X110.594 Y85.44 E.01009
G1 X111.115 Y85.254 E.01735
G1 X111.395 Y85.096 E.01009
G1 X111.823 Y84.745 E.01735
G1 X112.034 Y84.502 E.01009
G1 X112.398 Y83.864 E.02303
G1 X112.509 Y83.375 E.01573
G1 X115.307 Y78.529 E.17544
G1 X117.056 Y78.854 E.05579
G1 X119.462 Y79.499 E.07808
G1 X121.139 Y80.092 E.05579
G1 X121.139 Y85.687 E.17544
G1 X121.025 Y86.035 E.01149
G1 X120.977 Y86.348 E.00991
G1 X120.988 Y86.901 E.01735
G1 X121.048 Y87.217 E.01009
G1 X121.244 Y87.735 E.01735
G1 X121.408 Y88.012 E.01009
G1 X121.766 Y88.433 E.01735
G1 X122.013 Y88.64 E.01009
G1 X122.492 Y88.916 E.01735
G1 X122.794 Y89.027 E.01009
G1 X123.339 Y89.127 E.01735
G1 X123.66 Y89.13 E.01009
G1 X124.206 Y89.04 E.01735
G1 X124.51 Y88.935 E.01009
G1 X125.144 Y88.564 E.02302
G1 X125.486 Y88.197 E.01574
G1 X130.331 Y85.399 E.17544
G1 X131.684 Y86.555 E.05579
G1 X133.445 Y88.316 E.07808
G1 X134.601 Y89.669 E.05579
G1 X131.803 Y94.514 E.17544
G1 X131.53 Y94.758 E.01149
G1 X131.333 Y95.005 E.00991
G1 X131.065 Y95.49 E.01735
G1 X130.96 Y95.794 E.01009
G1 X130.87 Y96.34 E.01735
G1 X130.873 Y96.661 E.01009
G1 X130.973 Y97.206 E.01735
G1 X131.084 Y97.508 E.01009
G1 X131.36 Y97.987 E.01735
G1 X131.566 Y98.234 E.01009
G1 X131.988 Y98.592 E.01735
G1 X132.265 Y98.756 E.01009
G1 X132.783 Y98.952 E.01735
G1 X133.099 Y99.012 E.01009
G1 X133.833 Y99.008 E.02303
G1 X134.313 Y98.861 E.01573
G1 X139.908 Y98.861 E.17544
G1 X140.501 Y100.538 E.05579
G1 X141.146 Y102.944 E.07808
G1 X141.471 Y104.693 E.05579
G1 X136.625 Y107.491 E.17544
G1 X136.267 Y107.565 E.01149
G1 X135.972 Y107.681 E.00991
G1 X135.498 Y107.966 E.01735
G1 X135.255 Y108.177 E.01009
G1 X134.904 Y108.605 E.01735
G1 X134.746 Y108.885 E.01009
G1 X134.56 Y109.406 E.01735
G1 X134.505 Y109.723 E.01009
G1 X134.505 Y110.277 E.01735
G1 X134.56 Y110.594 E.01009
G1 X134.746 Y111.115 E.01734
G1 X134.904 Y111.395 E.0101
G1 X135.255 Y111.823 E.01735
G1 X135.498 Y112.034 E.01009
G1 X136.119 Y112.391 E.02248
G1 X136.625 Y112.509 E.01628
G1 X141.471 Y115.307 E.17544
G1 X141.146 Y117.056 E.05579
G1 X140.501 Y119.462 E.07808
G1 X139.908 Y121.139 E.05579
G1 X134.313 Y121.139 E.17544
G1 X133.733 Y120.979 E.01886
G1 X133.214 Y120.976 E.01626
G1 X132.441 Y121.156 E.02489
G1 X131.988 Y121.408 E.01625
G1 X131.567 Y121.766 E.01734
G1 X131.36 Y122.013 E.01009
G1 X131.084 Y122.492 E.01735
G1 X130.973 Y122.794 E.01009
G1 X130.873 Y123.339 E.01735
G1 X130.87 Y123.66 E.01009
G1 X130.96 Y124.206 E.01734
G1 X131.065 Y124.51 E.01009
G1 X131.399 Y125.097 E.02117
G1 X131.803 Y125.486 E.01759
G1 X134.601 Y130.331 E.17544
G1 X133.445 Y131.684 E.05579
G1 X131.684 Y133.445 E.07808
G1 X130.331 Y134.601 E.05579
G1 X125.486 Y131.803 E.17544
G1 X125.242 Y131.53 E.01149
G1 X124.995 Y131.333 E.00991
G1 X124.51 Y131.065 E.01735
G1 X124.206 Y130.96 E.01008
G1 X123.66 Y130.87 E.01734
G1 X123.339 Y130.873 E.01009
G1 X122.794 Y130.973 E.01735
G1 X122.492 Y131.084 E.01009
G1 X122.013 Y131.36 E.01735
G1 X121.766 Y131.566 E.01009
G1 X121.408 Y131.988 E.01735
G1 X121.244 Y132.265 E.01009
G1 X121.048 Y132.783 E.01735
G1 X120.988 Y133.099 E.01009
G1 X120.983 Y133.774 E.02117
G1 X121.139 Y134.313 E.01759
G1 X121.139 Y139.908 E.17544
G1 X119.462 Y140.501 E.05579
G1 X117.056 Y141.146 E.07808
G1 X115.307 Y141.471 E.05579
G1 X112.509 Y136.625 E.17544
G1 X112.435 Y136.267 E.01149
G1 X112.319 Y135.972 E.00991
G1 X112.034 Y135.498 E.01735
G1 X111.823 Y135.255 E.01009
G1 X111.395 Y134.904 E.01735
G1 X111.115 Y134.746 E.01009
G1 X110.594 Y134.56 E.01735
G1 X110.277 Y134.505 E.01009
G1 X109.723 Y134.505 E.01735
G1 X109.406 Y134.56 E.01009
G1 X108.885 Y134.746 E.01734
G1 X108.605 Y134.904 E.0101
G1 X108.177 Y135.255 E.01735
G1 X107.966 Y135.498 E.01009
G1 X107.609 Y136.119 E.02248
G1 X107.491 Y136.625 E.01629
G1 X104.693 Y141.471 E.17544
G1 X102.944 Y141.146 E.05579
G1 X100.538 Y140.501 E.07808
G1 X98.861 Y139.908 E.05579
G1 X98.861 Y134.313 E.17544
G1 X99.021 Y133.733 E.01886
G1 X99.024 Y133.214 E.01626
G1 X98.844 Y132.441 E.02489
G1 X98.592 Y131.988 E.01625
G1 X98.234 Y131.567 E.01734
G1 X97.987 Y131.36 E.01009
G1 X97.508 Y131.084 E.01735
G1 X97.206 Y130.973 E.01009
G1 X96.661 Y130.873 E.01735
G1 X96.34 Y130.87 E.01009
G1 X95.794 Y130.96 E.01735
G1 X95.49 Y131.065 E.01009
G1 X94.903 Y131.399 E.02117
G1 X94.514 Y131.803 E.01759
G1 X89.669 Y134.601 E.17544
G1 X88.316 Y133.445 E.05579
G1 X86.555 Y131.684 E.07808
G1 X85.399 Y130.331 E.05579
G1 X88.197 Y125.486 E.17544
G1 X88.47 Y125.242 E.01149
G1 X88.667 Y124.995 E.00991
G1 X88.935 Y124.51 E.01735
G1 X89.04 Y124.206 E.01009
G1 X89.13 Y123.66 E.01735
G1 X89.127 Y123.339 E.01009
G1 X89.027 Y122.794 E.01735
G1 X88.916 Y122.492 E.01009
G1 X88.64 Y122.013 E.01735
G1 X88.434 Y121.766 E.01009
G1 X88.012 Y121.408 E.01734
G1 X87.735 Y121.244 E.01009
G1 X87.217 Y121.048 E.01735
G1 X86.901 Y120.988 E.01009
G1 X86.226 Y120.983 E.02117
G1 X85.687 Y121.139 E.01759
G1 X80.092 Y121.139 E.17544
G1 X79.499 Y119.462 E.05579
G1 X78.854 Y117.056 E.07808
G1 X78.529 Y115.307 E.05579
G1 X83.375 Y112.509 E.17544
G1 X83.734 Y112.435 E.01149
G1 X84.028 Y112.319 E.00991
G1 X84.502 Y112.034 E.01735
G1 X84.745 Y111.823 E.01009
G1 X85.096 Y111.395 E.01735
G1 X85.254 Y111.115 E.01009
G1 X85.44 Y110.594 E.01734
G1 X85.495 Y110.277 E.01009
G1 X85.495 Y109.723 E.01735
G1 X85.44 Y109.406 E.01008
G1 X85.254 Y108.886 E.01733
G1 X85.096 Y108.605 E.01011
G1 X84.745 Y108.177 E.01735
G1 X84.502 Y107.966 E.01009
G1 X83.864 Y107.602 E.02303
G1 X83.375 Y107.491 E.01573
G1 X78.529 Y104.693 E.17544
G1 X78.854 Y102.944 E.05579
G1 X79.499 Y100.538 E.07808
G1 X80.092 Y98.861 E.05579
G1 X85.687 Y98.861 E.17544
G1 X86.035 Y98.975 E.01149
G1 X86.348 Y99.023 E.00991
G1 X86.901 Y99.012 E.01735
G1 X87.217 Y98.952 E.01009
G1 X87.735 Y98.756 E.01735
G1 X88.012 Y98.592 E.01009
G1 X88.433 Y98.235 E.01733
G1 X88.64 Y97.987 E.0101
G1 X88.916 Y97.508 E.01735
G1 X89.027 Y97.206 E.01009
G1 X89.127 Y96.661 E.01735
G1 X89.13 Y96.34 E.01009
G1 X89.04 Y95.794 E.01735
G1 X88.935 Y95.49 E.01009
G1 X88.564 Y94.856 E.02303
G1 X88.197 Y94.514 E.01573
G1 X85.429 Y89.721 E.17355
G1 X84.939 Y89.626 F9000
G1 F1200
G1 X86.278 Y88.06 E.06461
G1 X88.03 Y86.308 E.0777
G1 X89.627 Y84.939 E.06592
G1 X94.755 Y87.9 E.18568
G1 X95.04 Y88.219 E.01339
G1 X95.188 Y88.337 E.00595
G1 X95.672 Y88.605 E.01735
G1 X95.855 Y88.668 E.00605
G1 X96.401 Y88.758 E.01735
G1 X96.594 Y88.756 E.00605
G1 X97.138 Y88.656 E.01735
G1 X97.559 Y88.451 E.01468
G1 X97.947 Y88.189 E.01467
G1 X98.305 Y87.768 E.01735
G1 X98.403 Y87.601 E.00605
G1 X98.599 Y87.084 E.01735
G1 X98.635 Y86.894 E.00606
G1 X98.637 Y86.232 E.02076
G1 X98.483 Y85.748 E.01593
G1 X98.483 Y79.825 E.18569
G1 X100.426 Y79.138 E.06461
G1 X102.86 Y78.486 E.07901
G1 X104.886 Y78.11 E.06461
G1 X107.847 Y83.239 E.18569
G1 X107.934 Y83.657 E.01339
G1 X108.004 Y83.833 E.00595
G1 X108.289 Y84.307 E.01735
G1 X108.416 Y84.453 E.00605
G1 X108.844 Y84.804 E.01735
G1 X109.012 Y84.899 E.00606
G1 X109.533 Y85.085 E.01735
G1 X110 Y85.118 E.01468
G1 X110.467 Y85.085 E.01467
G1 X110.988 Y84.899 E.01735
G1 X111.156 Y84.804 E.00606
G1 X111.584 Y84.453 E.01735
G1 X111.711 Y84.307 E.00605
G1 X112.043 Y83.735 E.02076
G1 X112.153 Y83.239 E.01593
G1 X115.114 Y78.11 E.18569
G1 X117.14 Y78.486 E.06461
G1 X119.574 Y79.138 E.07901
G1 X121.517 Y79.825 E.06461
G1 X121.517 Y85.748 E.18569
G1 X121.383 Y86.153 E.01339
G1 X121.354 Y86.341 E.00595
G1 X121.365 Y86.894 E.01735
G1 X121.401 Y87.084 E.00605
G1 X121.597 Y87.601 E.01735
G1 X121.695 Y87.768 E.00605
G1 X122.053 Y88.189 E.01735
G1 X122.441 Y88.452 E.01469
G1 X122.862 Y88.656 E.01466
G1 X123.406 Y88.756 E.01735
G1 X123.599 Y88.758 E.00605
G1 X124.145 Y88.668 E.01735
G1 X124.328 Y88.605 E.00606
G1 X124.902 Y88.276 E.02075
G1 X125.245 Y87.9 E.01594
G1 X130.374 Y84.939 E.1857
G1 X131.94 Y86.278 E.06461
G1 X133.722 Y88.06 E.079
G1 X135.061 Y89.626 E.06461
G1 X132.1 Y94.755 E.18569
G1 X131.781 Y95.04 E.01339
G1 X131.663 Y95.188 E.00595
G1 X131.395 Y95.672 E.01735
G1 X131.332 Y95.854 E.00605
G1 X131.242 Y96.401 E.01735
G1 X131.244 Y96.594 E.00606
G1 X131.344 Y97.138 E.01735
G1 X131.549 Y97.559 E.01468
G1 X131.811 Y97.947 E.01468
G1 X132.232 Y98.305 E.01735
G1 X132.399 Y98.403 E.00605
G1 X132.916 Y98.599 E.01735
G1 X133.106 Y98.635 E.00606
G1 X133.768 Y98.637 E.02076
G1 X134.252 Y98.483 E.01593
G1 X140.175 Y98.483 E.18569
G1 X140.862 Y100.426 E.06461
G1 X141.514 Y102.86 E.07901
G1 X141.89 Y104.886 E.06461
G1 X136.761 Y107.847 E.18569
G1 X136.343 Y107.934 E.01339
G1 X136.167 Y108.004 E.00595
G1 X135.693 Y108.289 E.01735
G1 X135.547 Y108.416 E.00605
G1 X135.196 Y108.844 E.01735
G1 X135.101 Y109.012 E.00606
G1 X134.915 Y109.533 E.01735
G1 X134.882 Y110 E.01468
G1 X134.915 Y110.467 E.01467
G1 X135.101 Y110.988 E.01734
G1 X135.196 Y111.156 E.00606
G1 X135.547 Y111.584 E.01735
G1 X135.693 Y111.711 E.00605
G1 X136.255 Y112.04 E.02043
G1 X136.761 Y112.153 E.01627
G1 X141.89 Y115.114 E.18569
G1 X141.514 Y117.14 E.06461
G1 X140.862 Y119.574 E.07901
G1 X140.175 Y121.517 E.06461
G1 X134.252 Y121.517 E.18569
G1 X133.807 Y121.371 E.01467
G1 X133.286 Y121.346 E.01638
G1 X132.705 Y121.459 E.01854
G1 X132.232 Y121.695 E.01657
G1 X131.811 Y122.053 E.01734
G1 X131.548 Y122.441 E.0147
G1 X131.344 Y122.862 E.01466
G1 X131.244 Y123.406 E.01735
G1 X131.242 Y123.599 E.00605
G1 X131.332 Y124.145 E.01734
G1 X131.395 Y124.328 E.00606
G1 X131.702 Y124.874 E.01964
G1 X132.1 Y125.245 E.01705
G1 X135.061 Y130.374 E.18569
G1 X133.722 Y131.94 E.06461
G1 X131.94 Y133.722 E.079
G1 X130.374 Y135.061 E.06461
G1 X125.245 Y132.1 E.18569
G1 X124.812 Y131.663 E.01928
G1 X124.328 Y131.395 E.01735
G1 X124.145 Y131.332 E.00605
G1 X123.6 Y131.242 E.01734
G1 X123.406 Y131.244 E.00606
G1 X122.862 Y131.344 E.01735
G1 X122.441 Y131.549 E.01468
G1 X122.053 Y131.811 E.01467
G1 X121.695 Y132.232 E.01735
G1 X121.597 Y132.399 E.00605
G1 X121.401 Y132.916 E.01735
G1 X121.365 Y133.106 E.00606
G1 X121.358 Y133.732 E.01964
G1 X121.517 Y134.252 E.01704
G1 X121.517 Y140.175 E.18569
G1 X119.574 Y140.862 E.06461
G1 X117.14 Y141.514 E.07901
G1 X115.114 Y141.89 E.06461
G1 X112.153 Y136.761 E.18569
G1 X111.996 Y136.167 E.01928
G1 X111.711 Y135.693 E.01735
G1 X111.584 Y135.547 E.00605
G1 X111.156 Y135.196 E.01735
G1 X110.988 Y135.101 E.00605
G1 X110.467 Y134.915 E.01735
G1 X110 Y134.882 E.01469
G1 X109.533 Y134.915 E.01466
G1 X109.012 Y135.101 E.01734
G1 X108.844 Y135.196 E.00606
G1 X108.416 Y135.547 E.01735
G1 X108.289 Y135.693 E.00605
G1 X107.96 Y136.255 E.02043
G1 X107.847 Y136.761 E.01627
G1 X104.886 Y141.89 E.18569
G1 X102.86 Y141.514 E.06461
G1 X100.426 Y140.862 E.07901
G1 X98.483 Y140.175 E.06461
G1 X98.483 Y134.252 E.18569
G1 X98.629 Y133.807 E.01467
G1 X98.654 Y133.286 E.01638
G1 X98.541 Y132.705 E.01854
G1 X98.305 Y132.232 E.01657
G1 X97.947 Y131.811 E.01734
G1 X97.559 Y131.548 E.0147
G1 X97.138 Y131.344 E.01466
G1 X96.594 Y131.244 E.01735
G1 X96.401 Y131.242 E.00605
G1 X95.855 Y131.332 E.01735
G1 X95.672 Y131.395 E.00606
G1 X95.126 Y131.702 E.01964
G1 X94.755 Y132.1 E.01705
G1 X89.626 Y135.061 E.18569
G1 X88.06 Y133.722 E.06461
G1 X86.278 Y131.94 E.079
G1 X84.939 Y130.374 E.06461
G1 X87.9 Y125.245 E.18569
G1 X88.337 Y124.812 E.01928
G1 X88.605 Y124.328 E.01735
G1 X88.668 Y124.146 E.00606
G1 X88.758 Y123.599 E.01735
G1 X88.756 Y123.406 E.00605
G1 X88.656 Y122.862 E.01735
G1 X88.451 Y122.441 E.01468
G1 X88.189 Y122.053 E.01467
G1 X87.768 Y121.695 E.01734
G1 X87.601 Y121.597 E.00606
G1 X87.084 Y121.401 E.01735
G1 X86.894 Y121.365 E.00606
G1 X86.268 Y121.358 E.01965
G1 X85.748 Y121.517 E.01704
G1 X79.825 Y121.517 E.18569
G1 X79.138 Y119.574 E.06461
G1 X78.486 Y117.14 E.07901
G1 X78.11 Y115.114 E.06461
G1 X83.239 Y112.153 E.18569
G1 X83.833 Y111.996 E.01928
G1 X84.307 Y111.711 E.01735
G1 X84.453 Y111.584 E.00605
G1 X84.804 Y111.156 E.01735
G1 X84.899 Y110.988 E.00606
G1 X85.085 Y110.467 E.01734
G1 X85.118 Y110 E.01469
G1 X85.085 Y109.533 E.01466
G1 X84.899 Y109.013 E.01733
G1 X84.804 Y108.844 E.00607
G1 X84.453 Y108.416 E.01735
G1 X84.307 Y108.289 E.00605
G1 X83.735 Y107.957 E.02076
G1 X83.239 Y107.847 E.01593
G1 X78.11 Y104.886 E.18569
G1 X78.486 Y102.86 E.06461
G1 X79.138 Y100.426 E.07901
