; generated by PrusaSlicer 2.5.0+win64 on 2023-04-13 at 14:59:56 UTC

; 

; external perimeters extrusion width = 0.63mm
; perimeters extrusion width = 0.66mm
; infill extrusion width = 0.66mm
; solid infill extrusion width = 0.66mm
; top infill extrusion width = 0.60mm
; first layer extrusion width = 0.63mm

M201 X500 Y500 Z100 E5000 ; sets maximum accelerations, mm/sec^2
M203 X500 Y500 Z10 E60 ; sets maximum feedrates, mm / sec
M204 P500 R1000 T500 ; sets acceleration (P, T) and retract acceleration (R), mm/sec^2
M205 X8.00 Y8.00 Z0.40 E5.00 ; sets the jerk limits, mm/sec
M205 S0 T0 ; sets the minimum extruding and travel feed rate, mm/sec
M107
;TYPE:Custom
G90 ; use absolute coordinates
M83 ; extruder relative mode
M104 S150 ; set temporary nozzle temp to prevent oozing during homing
M140 S60 ; set final bed temp
G4 S30 ; allow partial nozzle warmup
G28 ; home all axis and restore leveling
G1 Z50 F240
G1 X2.0 Y10 F3000
M104 S210 ; set final nozzle temp
M190 S60 ; wait for bed temp to stabilize
M109 S210 ; wait for nozzle temp to stabilize
G1 Z0.28 F240
G92 E0
G1 X2.0 Y140 E10 F1500 ; prime the nozzle
G1 X2.3 Y140 F5000
G92 E0
G1 X2.3 Y10 E10 F1200 ; prime the nozzle
G92 E0
G21 ; set units to millimeters
G90 ; use absolute coordinates
M83 ; use relative distances for extrusion
; Filament gcode
M107
;LAYER_CHANGE
;Z:0.3
;HEIGHT:0.3
;BEFORE_LAYER_CHANGE
G92 E0
;0.3


G1 E-.8 F1800
G1 Z.3 F9000
;AFTER_LAYER_CHANGE
;0.3
G1 X61.252 Y74.83
G1 E.8 F1800
M204 S500
;TYPE:Skirt/Brim
;WIDTH:0.63
G1 F1200
G1 X62.258 Y74.233 E.08249
G1 X62.975 Y73.944 E.05452
G1 X64.035 Y73.688 E.07695
G1 X65 Y73.612 E.06827
G1 X155.211 Y73.618 E6.36415
G1 X156.294 Y73.747 E.07694
G1 X157.406 Y74.085 E.08196
G1 X158.391 Y74.589 E.07809
G1 X159.328 Y75.304 E.08312
G1 X160.301 Y76.439 E.10546
G1 X160.833 Y77.399 E.07746
G1 X161.214 Y78.523 E.08373
G1 X161.375 Y79.602 E.07695
G1 X161.378 Y140.359 E4.28622
G1 X161.204 Y141.524 E.08312
G1 X160.673 Y142.939 E.1066
G1 X159.825 Y144.189 E.10659
G1 X158.706 Y145.205 E.1066
G1 X157.775 Y145.756 E.07633
G1 X157.067 Y146.047 E.05401
G1 X156.337 Y146.249 E.0534
G1 X155.175 Y146.387 E.08261
G1 X64.833 Y146.388 E6.37336
G1 X63.344 Y146.172 E.10609
G1 X61.951 Y145.615 E.10583
G1 X60.725 Y144.748 E.10592
G1 X59.909 Y143.861 E.08504
G1 X59.327 Y142.939 E.07695
G1 X59.02 Y142.247 E.05339
G1 X58.712 Y141.127 E.08197
G1 X58.613 Y140.041 E.07694
G1 X58.611 Y79.919 E4.24143
G1 X58.784 Y78.532 E.09859
G1 X59.304 Y77.112 E.10671
G1 X60.147 Y75.849 E.1071
G1 X61.186 Y74.891 E.09974
; printing object trackroller.STL id:0 copy 0
;WIPE_START
G1 F7200
G1 X62.258 Y74.233 E-.29865
G1 X62.975 Y73.944 E-.18353
G1 X64.035 Y73.688 E-.25906
G1 X64.114 Y73.682 E-.01876
;WIPE_END
G1 E-.04 F1800
G1 X65.55 Y137.728 F9000
G1 E.8 F1800
;TYPE:External perimeter
;WIDTH:0.963453
G1 F1200
G1 X66.071 Y137.916 E.06214
;WIDTH:0.952799
G1 X66.533 Y138.224 E.0615
;WIDTH:0.961001
G1 X66.902 Y138.638 E.06202
;WIDTH:0.966671
G1 X67.167 Y139.124 E.06229
G1 X67.313 Y139.657 E.06226
;WIDTH:0.965255
G1 X67.334 Y140.211 E.06225
;WIDTH:0.956773
G1 X67.227 Y140.748 E.06102
;WIDTH:0.957826
G1 X66.981 Y141.253 E.0626
;WIDTH:0.965707
G1 X66.629 Y141.681 E.06221
;WIDTH:0.966427
G1 X66.189 Y142.016 E.06224
G1 X65.684 Y142.242 E.0623
;WIDTH:0.960077
G1 X65.107 Y142.344 E.06543
;WIDTH:0.946899
G1 X64.553 Y142.304 E.06113
;WIDTH:0.964117
G1 X64.057 Y142.144 E.05854
;WIDTH:0.966955
G1 X63.581 Y141.861 E.06228
G1 X63.183 Y141.477 E.06229
;WIDTH:0.962705
G1 X62.882 Y141.011 E.06211
;WIDTH:0.951329
G1 X62.7 Y140.469 E.06328
;WIDTH:0.962162
G1 X62.66 Y139.933 E.06018
;WIDTH:0.966849
G1 X62.744 Y139.386 E.06229
G1 X62.951 Y138.873 E.06227
;WIDTH:0.964727
G1 X63.27 Y138.42 E.06221
;WIDTH:0.955497
G1 X63.688 Y138.055 E.06168
;WIDTH:0.959007
G1 X64.184 Y137.807 E.06191
G1 X64.387 Y137.745 E.02359
;WIDTH:0.945291
G1 X65.025 Y137.656 E.07079
;WIDTH:0.963453
G1 X65.46 Y137.716 E.0493
;WIPE_START
G1 F7200
G1 X66.071 Y137.916 E-.15258
G1 X66.533 Y138.224 E-.13182
G1 X66.902 Y138.638 E-.13171
G1 X67.167 Y139.124 E-.13145
G1 X67.313 Y139.657 E-.13139
G1 X67.326 Y139.998 E-.08103
;WIPE_END
G1 E-.04 F1800
G1 X82.948 Y138.879 F9000
G1 E.8 F1800
;WIDTH:0.964055
G1 F1200
G1 X83.271 Y138.42 E.06293
;WIDTH:0.955489
G1 X83.688 Y138.055 E.06164
;WIDTH:0.959015
G1 X84.184 Y137.807 E.06191
G1 X84.387 Y137.745 E.0236
;WIDTH:0.945291
G1 X85.025 Y137.656 E.07079
;WIDTH:0.963455
G1 X85.55 Y137.728 E.05939
G1 X86.071 Y137.916 E.06216
;WIDTH:0.952831
G1 X86.527 Y138.22 E.06076
;WIDTH:0.960923
G1 X86.902 Y138.638 E.06278
;WIDTH:0.966669
G1 X87.167 Y139.124 E.06224
G1 X87.313 Y139.657 E.06226
;WIDTH:0.965257
G1 X87.334 Y140.211 E.06225
;WIDTH:0.956773
G1 X87.227 Y140.748 E.06102
;WIDTH:0.95744
G1 X86.981 Y141.254 E.06258
;WIDTH:0.966171
G1 X86.629 Y141.681 E.06224
;WIDTH:0.966425
G1 X86.189 Y142.016 E.06223
G1 X85.684 Y142.242 E.0623
;WIDTH:0.960079
G1 X85.107 Y142.344 E.06543
;WIDTH:0.946897
G1 X84.553 Y142.304 E.06113
;WIDTH:0.964119
G1 X84.057 Y142.144 E.05854
;WIDTH:0.966969
G1 X83.581 Y141.861 E.0623
G1 X83.187 Y141.482 E.06155
;WIDTH:0.961927
G1 X82.882 Y141.011 E.06283
;WIDTH:0.951335
G1 X82.699 Y140.463 E.06388
;WIDTH:0.961887
G1 X82.66 Y139.933 E.05951
;WIDTH:0.966861
G1 X82.744 Y139.386 E.06231
G1 X82.915 Y138.962 E.0514
G1 X83.509 Y138.864 F9000
;WIPE_START
G1 F7200
G1 X83.271 Y138.42 E-.15409
G1 X83.688 Y138.055 E-.13171
G1 X84.184 Y137.807 E-.13176
G1 X84.387 Y137.745 E-.05022
G1 X85.025 Y137.656 E-.15302
G1 X85.55 Y137.728 E-.12579
G1 X85.603 Y137.747 E-.0134
;WIPE_END
G1 E-.04 F1800
G1 X76.902 Y138.638 F9000
G1 E.8 F1800
;WIDTH:0.966427
G1 F1200
G1 X77.167 Y139.124 E.06227
G1 X77.313 Y139.657 E.06224
;WIDTH:0.966095
G1 X77.334 Y140.211 E.06228
;WIDTH:0.956739
G1 X77.225 Y140.755 E.06176
;WIDTH:0.957911
G1 X76.981 Y141.253 E.06184
;WIDTH:0.965717
G1 X76.629 Y141.681 E.06225
;WIDTH:0.966425
G1 X76.189 Y142.016 E.06224
G1 X75.684 Y142.242 E.0623
;WIDTH:0.960077
G1 X75.107 Y142.344 E.06543
;WIDTH:0.946897
G1 X74.553 Y142.304 E.06113
;WIDTH:0.964115
G1 X74.057 Y142.144 E.05854
;WIDTH:0.966955
G1 X73.581 Y141.861 E.06228
G1 X73.183 Y141.477 E.06229
;WIDTH:0.962705
G1 X72.882 Y141.011 E.06211
;WIDTH:0.951329
G1 X72.7 Y140.469 E.06328
;WIDTH:0.962162
G1 X72.66 Y139.933 E.06018
;WIDTH:0.966849
G1 X72.744 Y139.386 E.06229
G1 X72.951 Y138.873 E.06227
;WIDTH:0.964727
G1 X73.27 Y138.42 E.06221
;WIDTH:0.955497
G1 X73.688 Y138.055 E.06168
;WIDTH:0.959005
G1 X74.184 Y137.807 E.06191
G1 X74.387 Y137.745 E.02359
;WIDTH:0.945291
G1 X75.025 Y137.656 E.07079
;WIDTH:0.963453
G1 X75.55 Y137.728 E.05939
G1 X76.071 Y137.916 E.06214
;WIDTH:0.952797
G1 X76.533 Y138.224 E.0615
;WIDTH:0.961003
G1 X76.842 Y138.57 E.05196
;WIPE_START
G1 F7200
G1 X77.167 Y139.124 E-.15234
G1 X77.313 Y139.657 E-.13138
G1 X77.334 Y140.211 E-.13153
G1 X77.225 Y140.755 E-.1318
G1 X76.981 Y141.253 E-.13178
G1 X76.764 Y141.517 E-.08116
;WIPE_END
G1 E-.04 F1800
G1 X143.27 Y138.42 F9000
G1 E.8 F1800
;WIDTH:0.955497
G1 F1200
G1 X143.688 Y138.055 E.06168
;WIDTH:0.959009
G1 X144.184 Y137.807 E.06191
G1 X144.387 Y137.745 E.02359
;WIDTH:0.945289
G1 X145.025 Y137.656 E.07079
;WIDTH:0.963453
G1 X145.55 Y137.728 E.05939
G1 X146.071 Y137.916 E.06214
;WIDTH:0.952795
G1 X146.533 Y138.224 E.0615
;WIDTH:0.960999
G1 X146.902 Y138.638 E.06202
;WIDTH:0.966671
G1 X147.167 Y139.124 E.06229
G1 X147.313 Y139.657 E.06226
;WIDTH:0.965261
G1 X147.334 Y140.211 E.06225
;WIDTH:0.956776
G1 X147.227 Y140.748 E.06102
;WIDTH:0.957829
G1 X146.981 Y141.253 E.0626
;WIDTH:0.965719
G1 X146.629 Y141.681 E.0622
;WIDTH:0.966422
G1 X146.189 Y142.016 E.06224
G1 X145.684 Y142.242 E.06229
;WIDTH:0.960077
G1 X145.107 Y142.344 E.06543
;WIDTH:0.946895
G1 X144.553 Y142.304 E.06113
;WIDTH:0.964115
G1 X144.057 Y142.144 E.05854
;WIDTH:0.966951
G1 X143.581 Y141.861 E.06228
G1 X143.183 Y141.477 E.06229
;WIDTH:0.962699
G1 X142.882 Y141.011 E.06211
;WIDTH:0.951343
G1 X142.699 Y140.463 E.06394
;WIDTH:0.961884
G1 X142.66 Y139.933 E.0595
;WIDTH:0.966849
G1 X142.744 Y139.386 E.06229
G1 X142.951 Y138.873 E.06227
;WIDTH:0.964725
G1 X143.219 Y138.494 E.0521
;WIPE_START
G1 F7200
G1 X143.688 Y138.055 E-.15266
G1 X144.184 Y137.807 E-.13177
G1 X144.387 Y137.745 E-.05021
G1 X145.025 Y137.656 E-.15302
G1 X145.55 Y137.728 E-.12579
G1 X146.071 Y137.916 E-.13161
G1 X146.123 Y137.951 E-.01492
;WIPE_END
G1 E-.04 F1800
G1 X136.533 Y138.224 F9000
G1 E.8 F1800
;WIDTH:0.960999
G1 F1200
G1 X136.902 Y138.638 E.06202
;WIDTH:0.966419
G1 X137.167 Y139.124 E.06227
G1 X137.313 Y139.657 E.06224
;WIDTH:0.966093
G1 X137.334 Y140.211 E.06228
;WIDTH:0.956743
G1 X137.225 Y140.755 E.06176
;WIDTH:0.957913
G1 X136.981 Y141.253 E.06184
;WIDTH:0.965713
G1 X136.629 Y141.681 E.06225
;WIDTH:0.966243
G1 X136.189 Y142.016 E.06223
G1 X135.684 Y142.242 E.06228
;WIDTH:0.961121
G1 X135.107 Y142.344 E.0655
;WIDTH:0.946899
G1 X134.553 Y142.304 E.06113
;WIDTH:0.964115
G1 X134.057 Y142.144 E.05854
;WIDTH:0.966955
G1 X133.581 Y141.861 E.06228
G1 X133.183 Y141.477 E.06229
;WIDTH:0.962705
G1 X132.882 Y141.011 E.06211
;WIDTH:0.951333
G1 X132.7 Y140.469 E.06328
;WIDTH:0.962162
G1 X132.66 Y139.933 E.06018
;WIDTH:0.966861
G1 X132.744 Y139.386 E.06231
G1 X132.948 Y138.879 E.06153
;WIDTH:0.964051
G1 X133.271 Y138.42 E.06293
;WIDTH:0.955489
G1 X133.688 Y138.055 E.06164
;WIDTH:0.959009
G1 X134.184 Y137.807 E.06191
G1 X134.387 Y137.745 E.02359
;WIDTH:0.945289
G1 X135.025 Y137.656 E.07079
;WIDTH:0.963453
G1 X135.55 Y137.728 E.05939
G1 X136.071 Y137.916 E.06214
;WIDTH:0.952797
G1 X136.458 Y138.174 E.05153
;WIPE_START
G1 F7200
G1 X136.902 Y138.638 E-.15251
G1 X137.167 Y139.124 E-.13145
G1 X137.313 Y139.657 E-.13139
G1 X137.334 Y140.211 E-.13153
G1 X137.225 Y140.755 E-.13179
G1 X137.074 Y141.062 E-.08133
;WIPE_END
G1 E-.04 F1800
G1 X152.707 Y140.498 F9000
G1 E.8 F1800
;WIDTH:0.962161
G1 F1200
G1 X152.66 Y139.933 E.06345
;WIDTH:0.966631
G1 X152.744 Y139.386 E.06229
G1 X152.949 Y138.879 E.06151
;WIDTH:0.964936
G1 X153.24 Y138.454 E.05785
;WIDTH:0.945661
G1 X153.654 Y138.084 E.06105
;WIDTH:0.959013
G1 X154.184 Y137.807 E.0668
;WIDTH:0.967053
G1 X154.737 Y137.677 E.06385
G1 X155.025 Y137.656 E.03255
;WIDTH:0.963453
G1 X155.55 Y137.728 E.05939
G1 X156.053 Y137.907 E.05995
;WIDTH:0.948361
G1 X156.517 Y138.213 E.06124
;WIDTH:0.961001
G1 X156.902 Y138.638 E.06411
;WIDTH:0.966429
G1 X157.167 Y139.124 E.06227
G1 X157.313 Y139.657 E.06224
;WIDTH:0.966095
G1 X157.334 Y140.211 E.06228
;WIDTH:0.956691
G1 X157.237 Y140.703 E.05588
;WIDTH:0.958064
G1 X156.981 Y141.253 E.06761
;WIDTH:0.965437
G1 X156.629 Y141.681 E.06223
;WIDTH:0.967175
G1 X156.189 Y142.016 E.06229
G1 X155.684 Y142.242 E.06233
;WIDTH:0.960045
G1 X155.141 Y142.346 E.06175
;WIDTH:0.954189
G1 X154.553 Y142.304 E.06542
;WIDTH:0.964117
G1 X154.057 Y142.144 E.05854
;WIDTH:0.966953
G1 X153.581 Y141.861 E.06228
G1 X153.183 Y141.477 E.06229
;WIDTH:0.962701
G1 X152.885 Y141.018 E.06133
;WIDTH:0.949685
G1 X152.736 Y140.583 E.05074
;WIPE_START
G1 F7200
G1 X152.66 Y139.933 E-.1554
G1 X152.744 Y139.386 E-.13147
G1 X152.949 Y138.879 E-.12981
G1 X153.24 Y138.454 E-.12233
G1 X153.654 Y138.084 E-.13191
G1 X153.986 Y137.91 E-.08909
;WIPE_END
G1 E-.04 F1800
G1 X95.107 Y142.344 F9000
G1 E.8 F1800
;WIDTH:0.946897
G1 F1200
G1 X94.553 Y142.304 E.06114
;WIDTH:0.964123
G1 X94.057 Y142.144 E.05853
;WIDTH:0.966749
G1 X93.581 Y141.861 E.06227
G1 X93.183 Y141.477 E.06228
;WIDTH:0.963665
G1 X92.882 Y141.011 E.06217
;WIDTH:0.951329
G1 X92.7 Y140.469 E.06328
;WIDTH:0.962167
G1 X92.66 Y139.933 E.06018
;WIDTH:0.966867
G1 X92.744 Y139.386 E.06231
G1 X92.948 Y138.879 E.06153
;WIDTH:0.964055
G1 X93.271 Y138.42 E.06293
;WIDTH:0.955487
G1 X93.688 Y138.055 E.06164
;WIDTH:0.959013
G1 X94.184 Y137.807 E.06191
G1 X94.387 Y137.745 E.0236
;WIDTH:0.945291
G1 X95.025 Y137.656 E.07079
;WIDTH:0.963451
G1 X95.55 Y137.728 E.05939
G1 X96.071 Y137.916 E.06214
;WIDTH:0.952795
G1 X96.533 Y138.224 E.0615
;WIDTH:0.961001
G1 X96.902 Y138.638 E.06202
;WIDTH:0.966425
G1 X97.167 Y139.124 E.06227
G1 X97.313 Y139.657 E.06224
;WIDTH:0.966099
G1 X97.334 Y140.211 E.06228
;WIDTH:0.956739
G1 X97.225 Y140.755 E.06176
;WIDTH:0.957913
G1 X96.981 Y141.253 E.06184
;WIDTH:0.965717
G1 X96.629 Y141.681 E.06225
;WIDTH:0.966425
G1 X96.189 Y142.016 E.06224
G1 X95.684 Y142.242 E.0623
;WIDTH:0.960079
G1 X95.196 Y142.329 E.05538
;WIPE_START
G1 F7200
G1 X94.553 Y142.304 E-.15272
G1 X94.057 Y142.144 E-.12388
G1 X93.581 Y141.861 E-.13141
G1 X93.183 Y141.477 E-.13141
G1 X92.882 Y141.011 E-.13163
G1 X92.763 Y140.656 E-.08894
;WIPE_END
G1 E-.04 F1800
G1 X115.55 Y137.728 F9000
G1 E.8 F1800
;WIDTH:0.963453
G1 F1200
G1 X116.071 Y137.916 E.06216
;WIDTH:0.952829
G1 X116.527 Y138.22 E.06076
;WIDTH:0.960919
G1 X116.902 Y138.638 E.06278
;WIDTH:0.966422
G1 X117.167 Y139.124 E.06222
G1 X117.313 Y139.657 E.06224
;WIDTH:0.966091
G1 X117.334 Y140.211 E.06228
;WIDTH:0.95674
G1 X117.225 Y140.755 E.06176
;WIDTH:0.957909
G1 X116.981 Y141.253 E.06184
;WIDTH:0.965717
G1 X116.629 Y141.681 E.06225
;WIDTH:0.966422
G1 X116.189 Y142.016 E.06224
G1 X115.684 Y142.242 E.0623
;WIDTH:0.960073
G1 X115.107 Y142.344 E.06543
;WIDTH:0.946897
G1 X114.553 Y142.304 E.06113
;WIDTH:0.964121
G1 X114.057 Y142.144 E.05853
;WIDTH:0.966974
G1 X113.581 Y141.861 E.0623
G1 X113.187 Y141.482 E.06155
;WIDTH:0.961923
G1 X112.882 Y141.011 E.06283
;WIDTH:0.951322
G1 X112.7 Y140.469 E.06324
;WIDTH:0.962167
G1 X112.66 Y139.933 E.06018
;WIDTH:0.966843
G1 X112.744 Y139.386 E.06229
G1 X112.951 Y138.873 E.06227
;WIDTH:0.964725
G1 X113.27 Y138.42 E.06221
;WIDTH:0.955491
G1 X113.688 Y138.055 E.06168
;WIDTH:0.959015
G1 X114.184 Y137.807 E.06191
G1 X114.387 Y137.745 E.0236
;WIDTH:0.945291
G1 X115.025 Y137.656 E.07079
;WIDTH:0.963453
G1 X115.46 Y137.716 E.0493
;WIPE_START
G1 F7200
G1 X116.071 Y137.916 E-.15262
G1 X116.527 Y138.22 E-.13023
G1 X116.902 Y138.638 E-.13334
G1 X117.167 Y139.124 E-.13135
G1 X117.313 Y139.657 E-.1314
G1 X117.326 Y139.998 E-.08106
;WIPE_END
G1 E-.04 F1800
G1 X122.951 Y138.873 F9000
G1 E.8 F1800
;WIDTH:0.964725
G1 F1200
G1 X123.27 Y138.42 E.06221
;WIDTH:0.955495
G1 X123.688 Y138.055 E.06168
;WIDTH:0.959013
G1 X124.184 Y137.807 E.06191
G1 X124.387 Y137.745 E.0236
;WIDTH:0.945289
G1 X125.025 Y137.656 E.07079
;WIDTH:0.963451
G1 X125.55 Y137.728 E.05939
G1 X126.071 Y137.916 E.06214
;WIDTH:0.952795
G1 X126.533 Y138.224 E.0615
;WIDTH:0.960999
G1 X126.902 Y138.638 E.06202
;WIDTH:0.966667
G1 X127.167 Y139.124 E.06229
G1 X127.313 Y139.657 E.06226
;WIDTH:0.965257
G1 X127.334 Y140.211 E.06223
;WIDTH:0.956743
G1 X127.225 Y140.755 E.06176
;WIDTH:0.957915
G1 X126.981 Y141.253 E.06184
;WIDTH:0.965709
G1 X126.629 Y141.681 E.06225
;WIDTH:0.966429
G1 X126.189 Y142.016 E.06224
G1 X125.684 Y142.242 E.0623
;WIDTH:0.960079
G1 X125.107 Y142.344 E.06543
;WIDTH:0.946897
G1 X124.553 Y142.304 E.06113
;WIDTH:0.964117
G1 X124.057 Y142.144 E.05854
;WIDTH:0.966767
G1 X123.581 Y141.861 E.06229
G1 X123.187 Y141.482 E.06153
;WIDTH:0.962894
G1 X122.882 Y141.011 E.06289
;WIDTH:0.951329
G1 X122.7 Y140.469 E.06324
;WIDTH:0.962162
G1 X122.66 Y139.933 E.06018
;WIDTH:0.966851
G1 X122.744 Y139.386 E.06229
G1 X122.918 Y138.957 E.05214
G1 X123.505 Y138.859 F9000
;WIPE_START
G1 F7200
G1 X123.27 Y138.42 E-.15245
G1 X123.688 Y138.055 E-.13181
G1 X124.184 Y137.807 E-.13176
G1 X124.387 Y137.745 E-.05022
G1 X125.025 Y137.656 E-.15302
G1 X125.55 Y137.728 E-.12579
G1 X125.609 Y137.749 E-.01494
;WIPE_END
G1 E-.04 F1800
G1 X106.902 Y138.638 F9000
G1 E.8 F1800
;WIDTH:0.966667
G1 F1200
G1 X107.167 Y139.124 E.06229
G1 X107.313 Y139.657 E.06227
;WIDTH:0.965255
G1 X107.334 Y140.211 E.06223
;WIDTH:0.956739
G1 X107.225 Y140.755 E.06177
;WIDTH:0.957911
G1 X106.981 Y141.253 E.06184
;WIDTH:0.965717
G1 X106.629 Y141.681 E.06225
;WIDTH:0.966425
G1 X106.189 Y142.016 E.06224
G1 X105.684 Y142.242 E.0623
;WIDTH:0.960079
G1 X105.107 Y142.344 E.06543
;WIDTH:0.946897
G1 X104.553 Y142.304 E.06113
;WIDTH:0.964113
G1 X104.057 Y142.144 E.05853
;WIDTH:0.966977
G1 X103.581 Y141.861 E.0623
G1 X103.187 Y141.482 E.06155
;WIDTH:0.961925
G1 X102.882 Y141.011 E.06283
;WIDTH:0.951335
G1 X102.7 Y140.469 E.06324
;WIDTH:0.962169
G1 X102.66 Y139.933 E.06018
;WIDTH:0.966851
