; generated by PrusaSlicer 2.5.0+win64 on 2023-04-11 at 15:52:51 UTC

; 

; external perimeters extrusion width = 0.42mm
; perimeters extrusion width = 0.44mm
; infill extrusion width = 0.44mm
; solid infill extrusion width = 0.44mm
; top infill extrusion width = 0.40mm
; first layer extrusion width = 0.42mm

; external perimeters extrusion width = 0.42mm
; perimeters extrusion width = 0.44mm
; infill extrusion width = 0.44mm
; solid infill extrusion width = 0.44mm
; top infill extrusion width = 0.40mm
; first layer extrusion width = 0.42mm

M107
;TYPE:Custom
G90 ; use absolute coordinates
M83 ; extruder relative mode
M140 S60 ; set final bed temp
M104 S150 ; set temporary nozzle temp to prevent oozing during homing and auto bed leveling
G4 S10 ; allow partial nozzle warmup
G28 ; home all axis
G29 ; auto bed levelling
G1 Z50 F240
G1 X2 Y10 F3000
M104 S215 ; set final nozzle temp
M190 S60 ; wait for bed temp to stabilize
M109 S215 ; wait for nozzle temp to stabilize
G1 Z0.28 F240
G92 E0
G1 Y140 E10 F1500 ; prime the nozzle
G1 X2.3 F5000
G92 E0
G1 Y10 E10 F1200 ; prime the nozzle
G92 E0
G21 ; set units to millimeters
G90 ; use absolute coordinates
M83 ; use relative distances for extrusion
; Filament gcode
M107
;LAYER_CHANGE
;Z:0.2
;HEIGHT:0.2
;BEFORE_LAYER_CHANGE
G92 E0
;0.2


G1 E-.8 F1800
G1 Z.2 F9000
;AFTER_LAYER_CHANGE
;0.2
G1 X96.296 Y96.296
G1 E.8 F1800
M204 S500
;TYPE:Skirt/Brim
;WIDTH:0.42
G1 F1200
G1 X98.477 Y94.115 E.0967
G1 X99.875 Y93.274 E.05115
G1 X100.865 Y93.126 E.03138
G1 X119.325 Y93.128 E.57881
G1 X144.054 Y93.994 E.77583
G1 X145.622 Y94.444 E.05115
G1 X146.324 Y94.981 E.02771
G1 X149.253 Y97.91 E.12987
G1 X150.094 Y99.308 E.05115
G1 X150.242 Y100.298 E.03138
G1 X150.242 Y126.105 E.80915
G1 X149.848 Y127.688 E.05115
G1 X149.253 Y128.493 E.03138
G1 X146.324 Y131.422 E.12987
G1 X144.926 Y132.263 E.05115
G1 X143.936 Y132.411 E.03138
G1 X125.475 Y132.409 E.57881
G1 X100.747 Y131.543 E.77583
G1 X99.178 Y131.093 E.05115
G1 X98.477 Y130.556 E.02771
G1 X95.548 Y127.627 E.12987
G1 X94.707 Y126.229 E.05115
G1 X94.559 Y125.239 E.03138
G1 X94.559 Y99.432 E.80915
G1 X94.953 Y97.849 E.05115
G1 X95.548 Y97.044 E.03138
G1 X96.254 Y96.338 E.03129
;WIPE_START
G1 F7200
G1 X98.477 Y94.115 E-.74675
G1 X98.525 Y94.086 E-.01325
;WIPE_END
G1 E-.04 F1800
G1 X122.951 Y101.822 F9000
G1 E.8 F1800
G1 F1200
G1 X123.6 Y99.9 E.06363
G1 X124.104 Y99.261 E.0255
G1 X125.116 Y98.363 E.04242
G1 X125.933 Y97.954 E.02864
G1 X127.111 Y97.661 E.03806
G1 X142.352 Y97.66 E.47787
G1 X143.3 Y97.843 E.03028
G1 X144.208 Y98.234 E.031
G1 X145.427 Y99.258 E.0499
G1 X146.217 Y100.475 E.04551
G1 X146.578 Y101.858 E.04481
G1 X146.578 Y124.581 E.71246
G1 X145.929 Y126.504 E.06363
G1 X145.425 Y127.142 E.0255
G1 X144.414 Y128.04 E.04242
G1 X143.597 Y128.449 E.02862
G1 X142.374 Y128.747 E.03947
G1 X127.118 Y128.747 E.47836
G1 X125.195 Y128.098 E.06363
G1 X124.557 Y127.594 E.0255
G1 X123.658 Y126.583 E.04242
G1 X123.25 Y125.767 E.02862
G1 X122.951 Y124.543 E.03947
G1 X122.951 Y101.882 E.71052
G1 X123.328 Y101.882 F9000
G1 F1200
G1 X123.917 Y100.107 E.05866
G1 X124.369 Y99.531 E.02295
G1 X125.309 Y98.688 E.0396
G1 X126.045 Y98.315 E.02586
G1 X127.179 Y98.033 E.03665
G1 X142.333 Y98.037 E.47513
G1 X143.206 Y98.209 E.0279
G1 X144.031 Y98.568 E.02823
G1 X145.162 Y99.527 E.04647
G1 X145.861 Y100.601 E.04018
G1 X146.201 Y101.883 E.04157
G1 X146.201 Y124.55 E.71072
G1 X145.613 Y126.297 E.05778
G1 X145.161 Y126.873 E.02295
G1 X144.22 Y127.716 E.0396
G1 X143.485 Y128.088 E.02585
G1 X142.351 Y128.37 E.03664
G1 X127.149 Y128.37 E.47666
G1 X125.402 Y127.782 E.05778
G1 X124.826 Y127.33 E.02295
G1 X123.983 Y126.389 E.0396
G1 X123.61 Y125.654 E.02585
G1 X123.328 Y124.52 E.03664
G1 X123.328 Y101.942 E.70791
G1 X123.705 Y101.942 F9000
G1 F1200
G1 X123.705 Y101.884 E.00184
G1 X124.234 Y100.313 E.05197
G1 X124.634 Y99.799 E.02043
G1 X125.504 Y99.011 E.03679
G1 X126.159 Y98.675 E.02308
G1 X127.203 Y98.41 E.03377
G1 X142.313 Y98.414 E.47378
G1 X143.11 Y98.575 E.02549
G1 X143.853 Y98.902 E.02545
G1 X144.895 Y99.795 E.04302
G1 X145.527 Y100.779 E.03669
G1 X145.824 Y101.907 E.03655
G1 X145.824 Y124.519 E.709
G1 X145.295 Y126.09 E.05197
G1 X144.895 Y126.605 E.02043
G1 X144.025 Y127.392 E.03679
G1 X143.371 Y127.729 E.02308
G1 X142.327 Y127.993 E.03376
G1 X127.179 Y127.993 E.47495
G1 X125.608 Y127.465 E.05197
G1 X125.094 Y127.064 E.02043
G1 X124.307 Y126.194 E.03679
G1 X123.97 Y125.54 E.02308
G1 X123.705 Y124.496 E.03376
G1 X123.705 Y102.002 E.70528
G1 X124.082 Y102.002 F9000
G1 F1200
G1 X124.083 Y101.914 E.00276
G1 X124.552 Y100.518 E.04619
G1 X124.901 Y100.065 E.01793
G1 X125.701 Y99.333 E.03399
G1 X126.275 Y99.034 E.0203
G1 X127.227 Y98.787 E.03083
G1 X142.294 Y98.791 E.4724
G1 X143.013 Y98.939 E.02303
G1 X143.673 Y99.234 E.02266
G1 X144.627 Y100.062 E.0396
G1 X145.171 Y100.906 E.03149
G1 X145.447 Y101.932 E.03331
G1 X145.447 Y124.489 E.70725
G1 X144.978 Y125.885 E.04619
G1 X144.628 Y126.338 E.01793
G1 X143.828 Y127.07 E.03399
G1 X143.254 Y127.369 E.0203
G1 X142.303 Y127.616 E.03082
G1 X127.21 Y127.616 E.47322
G1 X125.813 Y127.147 E.04619
G1 X125.361 Y126.797 E.01793
G1 X124.629 Y125.997 E.03399
G1 X124.329 Y125.423 E.0203
G1 X124.083 Y124.472 E.03082
G1 X124.082 Y102.062 E.70263
G1 X124.46 Y102.062 F9000
G1 F1200
G1 X124.46 Y101.945 E.00368
G1 X124.87 Y100.722 E.04045
G1 X125.17 Y100.33 E.01546
G1 X125.901 Y99.654 E.03121
G1 X126.394 Y99.392 E.01752
G1 X127.252 Y99.164 E.02784
G1 X142.275 Y99.168 E.47101
G1 X142.878 Y99.292 E.01932
G1 X143.493 Y99.567 E.0211
G1 X144.357 Y100.326 E.03609
G1 X144.837 Y101.083 E.02809
G1 X145.07 Y101.957 E.02835
G1 X145.07 Y124.458 E.70552
G1 X144.659 Y125.681 E.04045
G1 X144.359 Y126.073 E.01546
G1 X143.629 Y126.749 E.03121
G1 X143.135 Y127.011 E.01752
G1 X142.277 Y127.239 E.02783
G1 X127.24 Y127.239 E.47148
G1 X126.017 Y126.828 E.04045
G1 X125.626 Y126.529 E.01546
G1 X124.95 Y125.798 E.03121
G1 X124.688 Y125.304 E.01752
G1 X124.46 Y124.447 E.02783
G1 X124.46 Y102.122 E.69996
G1 X124.837 Y102.122 F9000
G1 F1200
G1 X124.837 Y101.976 E.00461
G1 X125.19 Y100.925 E.03476
G1 X125.44 Y100.594 E.01301
G1 X126.103 Y99.974 E.02845
G1 X126.516 Y99.75 E.01474
G1 X127.278 Y99.541 E.02478
G1 X142.254 Y99.545 E.46956
G1 X142.779 Y99.656 E.01681
G1 X143.31 Y99.898 E.01829
G1 X144.086 Y100.59 E.03263
G1 X144.481 Y101.211 E.02306
G1 X144.693 Y101.982 E.0251
G1 X144.693 Y124.428 E.70375
G1 X144.34 Y125.478 E.03476
G1 X144.089 Y125.809 E.01301
G1 X143.427 Y126.43 E.02845
G1 X143.014 Y126.653 E.01474
G1 X142.252 Y126.862 E.02477
G1 X127.271 Y126.862 E.4697
G1 X126.22 Y126.509 E.03476
G1 X125.889 Y126.258 E.01301
G1 X125.269 Y125.596 E.02845
G1 X125.045 Y125.183 E.01474
G1 X124.837 Y124.421 E.02477
G1 X124.837 Y102.182 E.69726
G1 X125.214 Y102.182 F9000
G1 F1200
G1 X125.214 Y102.006 E.00552
G1 X125.51 Y101.126 E.02912
G1 X125.712 Y100.856 E.01059
G1 X126.307 Y100.291 E.02573
G1 X126.641 Y100.106 E.01196
G1 X127.305 Y99.918 E.02163
G1 X142.233 Y99.922 E.46805
G1 X142.676 Y100.02 E.01423
G1 X143.124 Y100.227 E.01548
G1 X143.814 Y100.852 E.0292
G1 X144.126 Y101.341 E.01818
G1 X144.316 Y102.009 E.02179
G1 X144.316 Y124.397 E.70195
G1 X144.02 Y125.277 E.02912
G1 X143.817 Y125.548 E.01059
G1 X143.222 Y126.112 E.02573
G1 X142.888 Y126.297 E.01196
G1 X142.225 Y126.485 E.02162
G1 X127.302 Y126.485 E.4679
G1 X126.421 Y126.189 E.02912
G1 X126.151 Y125.987 E.01059
G1 X125.586 Y125.391 E.02573
G1 X125.401 Y125.057 E.01196
G1 X125.214 Y124.394 E.02162
G1 X125.214 Y102.242 E.69454
G1 X125.591 Y102.242 F9000
G1 F1200
G1 X125.591 Y102.037 E.00644
G1 X125.831 Y101.326 E.02355
G1 X125.986 Y101.115 E.00819
G1 X126.516 Y100.606 E.02305
G1 X126.77 Y100.461 E.00919
G1 X127.333 Y100.295 E.01838
G1 X142.21 Y100.299 E.46648
G1 X142.57 Y100.382 E.01157
G1 X142.936 Y100.555 E.01268
G1 X143.541 Y101.112 E.0258
G1 X143.773 Y101.474 E.01347
G1 X143.939 Y102.037 E.01841
G1 X143.939 Y124.366 E.7001
G1 X143.699 Y125.078 E.02355
G1 X143.544 Y125.288 E.00819
G1 X143.014 Y125.797 E.02305
G1 X142.759 Y125.942 E.00919
G1 X142.197 Y126.108 E.01838
G1 X127.333 Y126.108 E.46606
G1 X126.621 Y125.868 E.02355
G1 X126.411 Y125.713 E.00819
G1 X125.901 Y125.183 E.02305
G1 X125.756 Y124.928 E.00919
G1 X125.591 Y124.366 E.01838
G1 X125.591 Y102.302 E.69178
G1 X125.968 Y102.302 F9000
G1 F1200
G1 X125.968 Y102.068 E.00734
G1 X126.153 Y101.523 E.01806
G1 X126.262 Y101.373 E.0058
G1 X126.729 Y100.918 E.02044
G1 X126.905 Y100.814 E.00643
G1 X127.362 Y100.672 E.015
G1 X142.189 Y100.676 E.46487
G1 X142.427 Y100.731 E.00767
G1 X142.747 Y100.883 E.01109
G1 X143.265 Y101.371 E.02233
G1 X143.421 Y101.611 E.00898
G1 X143.562 Y102.067 E.01495
G1 X143.562 Y124.335 E.6982
G1 X143.376 Y124.88 E.01806
G1 X143.268 Y125.03 E.0058
G1 X142.801 Y125.485 E.02044
G1 X142.624 Y125.59 E.00643
G1 X142.167 Y125.731 E.015
G1 X127.364 Y125.731 E.46415
G1 X126.818 Y125.545 E.01806
G1 X126.668 Y125.437 E.0058
G1 X126.213 Y124.97 E.02044
G1 X126.109 Y124.793 E.00643
G1 X125.968 Y124.336 E.015
G1 X125.968 Y102.362 E.68897
G1 X126.345 Y102.362 F9000
G1 F1200
G1 X126.345 Y102.1 E.00823
G1 X126.477 Y101.717 E.0127
G1 X126.54 Y101.628 E.00343
G1 X126.947 Y101.226 E.01795
G1 X127.048 Y101.163 E.00371
G1 X127.394 Y101.05 E.01144
G1 X142.167 Y101.053 E.46318
G1 X142.284 Y101.081 E.00377
G1 X142.557 Y101.21 E.00947
G1 X142.988 Y101.626 E.0188
G1 X143.071 Y101.754 E.00479
G1 X143.185 Y102.099 E.01136
G1 X143.185 Y124.303 E.69621
G1 X143.052 Y124.686 E.0127
G1 X142.99 Y124.775 E.00343
G1 X142.582 Y125.178 E.01795
G1 X142.482 Y125.24 E.00371
G1 X142.135 Y125.354 E.01144
G1 X127.396 Y125.354 E.46216
G1 X127.013 Y125.222 E.0127
G1 X126.923 Y125.159 E.00343
G1 X126.521 Y124.752 E.01795
G1 X126.459 Y124.651 E.00371
G1 X126.345 Y124.305 E.01144
G1 X126.345 Y102.422 E.6861
G1 X126.722 Y102.422 F9000
G1 F1200
G1 X126.722 Y102.134 E.00905
G1 X126.822 Y101.879 E.00856
G1 X127.175 Y101.526 E.01566
G1 X127.429 Y101.427 E.00856
G1 X142.115 Y101.427 E.46045
G1 X142.365 Y101.536 E.00856
G1 X142.708 Y101.879 E.01522
G1 X142.807 Y102.134 E.00856
G1 X142.807 Y124.269 E.69405
G1 X142.708 Y124.524 E.00856
G1 X142.355 Y124.877 E.01566
G1 X142.1 Y124.977 E.00856
G1 X127.429 Y124.977 E.46
G1 X127.175 Y124.877 E.00856
G1 X126.822 Y124.524 E.01566
G1 X126.722 Y124.269 E.00856
G1 X126.722 Y102.482 E.68312
G1 X127.099 Y102.482 F9000
G1 F1200
G1 X127.099 Y102.176 E.00962
G1 X127.128 Y102.106 E.00235
G1 X127.402 Y101.832 E.01215
G1 X127.471 Y101.804 E.00235
G1 X142.058 Y101.804 E.45738
G1 X142.128 Y101.832 E.00235
G1 X142.402 Y102.106 E.01215
G1 X142.43 Y102.176 E.00235
G1 X142.43 Y124.228 E.69142
G1 X142.402 Y124.297 E.00235
G1 X142.128 Y124.571 E.01215
G1 X142.058 Y124.599 E.00235
G1 X127.471 Y124.599 E.45738
G1 X127.402 Y124.571 E.00235
G1 X127.128 Y124.297 E.01215
G1 X127.099 Y124.228 E.00235
G1 X127.099 Y102.542 E.67992
G1 X127.476 Y102.542 F9000
G1 F1200
G1 X127.476 Y102.291 E.00788
G1 X127.587 Y102.181 E.0049
G1 X141.943 Y102.181 E.45013
G1 X142.053 Y102.291 E.0049
G1 X142.053 Y124.112 E.68417
G1 X141.943 Y124.222 E.0049
G1 X127.587 Y124.222 E.45013
G1 X127.476 Y124.112 E.0049
G1 X127.476 Y102.602 E.67442
;WIPE_START
G1 F7200
G1 X127.476 Y102.291 E-.07392
G1 X127.587 Y102.181 E-.0371
G1 X130.319 Y102.181 E-.64899
;WIPE_END
G1 E-.04 F1800
G1 X121.849 Y102.602 F9000
G1 E.8 F1800
G1 F1200
G1 X121.849 Y123.715 E.66196
G1 X121.201 Y125.637 E.06363
G1 X120.697 Y126.276 E.0255
G1 X119.685 Y127.174 E.04242
G1 X118.869 Y127.583 E.02862
G1 X117.646 Y127.881 E.03947
G1 X102.389 Y127.881 E.47836
G1 X100.466 Y127.232 E.06363
G1 X99.828 Y126.728 E.0255
G1 X98.93 Y125.717 E.04242
G1 X98.521 Y124.9 E.02862
G1 X98.222 Y123.677 E.03947
G1 X98.222 Y100.956 E.7124
G1 X98.871 Y99.033 E.06363
G1 X99.375 Y98.395 E.0255
G1 X100.387 Y97.497 E.04242
G1 X101.204 Y97.088 E.02864
G1 X102.382 Y96.795 E.03806
G1 X117.623 Y96.793 E.47787
G1 X118.571 Y96.977 E.03028
G1 X119.479 Y97.368 E.031
G1 X120.698 Y98.392 E.0499
G1 X121.489 Y99.609 E.04551
G1 X121.849 Y100.992 E.04481
G1 X121.849 Y102.542 E.04862
G1 X121.472 Y102.542 F9000
G1 F1200
G1 X121.472 Y123.684 E.66288
G1 X120.884 Y125.43 E.05778
G1 X120.432 Y126.006 E.02295
G1 X119.492 Y126.849 E.0396
G1 X118.756 Y127.222 E.02585
G1 X117.622 Y127.504 E.03664
G1 X102.42 Y127.504 E.47666
G1 X100.673 Y126.916 E.05778
G1 X100.097 Y126.464 E.02295
G1 X99.254 Y125.523 E.0396
G1 X98.881 Y124.788 E.02585
G1 X98.6 Y123.654 E.03664
G1 X98.6 Y100.987 E.71071
G1 X99.188 Y99.241 E.05778
G1 X99.64 Y98.664 E.02295
G1 X100.58 Y97.821 E.0396
G1 X101.316 Y97.449 E.02586
G1 X102.45 Y97.167 E.03665
G1 X117.604 Y97.17 E.47513
G1 X118.477 Y97.343 E.0279
G1 X119.302 Y97.702 E.02823
G1 X120.433 Y98.661 E.04647
G1 X121.132 Y99.735 E.04018
G1 X121.472 Y101.017 E.04157
G1 X121.472 Y102.482 E.04596
G1 X121.095 Y102.482 F9000
G1 F1200
G1 X121.095 Y123.653 E.6638
G1 X120.567 Y125.224 E.05197
G1 X120.166 Y125.738 E.02043
G1 X119.296 Y126.526 E.03679
G1 X118.642 Y126.862 E.02308
G1 X117.598 Y127.127 E.03376
G1 X102.45 Y127.127 E.47495
G1 X100.879 Y126.598 E.05197
G1 X100.365 Y126.198 E.02043
G1 X99.578 Y125.328 E.03679
G1 X99.241 Y124.674 E.02308
G1 X98.977 Y123.63 E.03376
G1 X98.977 Y101.018 E.709
G1 X99.505 Y99.447 E.05197
G1 X99.906 Y98.932 E.02043
G1 X100.775 Y98.145 E.03679
G1 X101.43 Y97.808 E.02308
G1 X102.474 Y97.544 E.03377
G1 X117.585 Y97.548 E.47378
G1 X118.382 Y97.708 E.02549
G1 X119.124 Y98.036 E.02545
G1 X120.166 Y98.929 E.04302
G1 X120.799 Y99.913 E.03669
G1 X121.095 Y101.041 E.03655
G1 X121.095 Y102.422 E.04332
G1 X120.718 Y102.422 F9000
G1 F1200
G1 X120.718 Y123.623 E.66472
G1 X120.249 Y125.019 E.04619
G1 X119.899 Y125.472 E.01793
G1 X119.099 Y126.204 E.03399
G1 X118.525 Y126.503 E.0203
G1 X117.574 Y126.75 E.03082
G1 X102.481 Y126.75 E.47322
G1 X101.085 Y126.281 E.04619
G1 X100.632 Y125.931 E.01793
G1 X99.9 Y125.131 E.03399
G1 X99.6 Y124.557 E.0203
G1 X99.354 Y123.606 E.03082
G1 X99.354 Y101.048 E.70727
G1 X99.823 Y99.652 E.04619
G1 X100.173 Y99.199 E.01793
G1 X100.973 Y98.467 E.03399
G1 X101.547 Y98.168 E.0203
G1 X102.499 Y97.921 E.03083
G1 X117.565 Y97.925 E.4724
G1 X118.284 Y98.073 E.02303
G1 X118.944 Y98.368 E.02266
G1 X119.898 Y99.196 E.0396
G1 X120.442 Y100.04 E.03149
G1 X120.718 Y101.066 E.03331
G1 X120.718 Y102.362 E.04065
G1 X120.341 Y102.362 F9000
G1 F1200
G1 X120.341 Y123.592 E.66564
G1 X119.93 Y124.815 E.04045
G1 X119.631 Y125.207 E.01546
G1 X118.9 Y125.883 E.03121
G1 X118.406 Y126.145 E.01752
G1 X117.549 Y126.373 E.02783
G1 X102.512 Y126.373 E.47148
G1 X101.289 Y125.962 E.04045
G1 X100.897 Y125.662 E.01546
G1 X100.221 Y124.932 E.03121
G1 X99.959 Y124.438 E.01752
G1 X99.731 Y123.58 E.02783
G1 X99.731 Y101.079 E.70552
G1 X100.142 Y99.856 E.04045
G1 X100.441 Y99.464 E.01546
G1 X101.172 Y98.788 E.03121
G1 X101.665 Y98.526 E.01752
G1 X102.524 Y98.298 E.02784
G1 X117.546 Y98.302 E.47101
G1 X118.149 Y98.426 E.01932
G1 X118.764 Y98.701 E.0211
G1 X119.628 Y99.46 E.03609
G1 X120.108 Y100.217 E.02809
G1 X120.341 Y101.09 E.02835
G1 X120.341 Y102.302 E.038
G1 X119.964 Y102.302 F9000
G1 F1200
G1 X119.964 Y123.561 E.66656
G1 X119.611 Y124.612 E.03476
G1 X119.361 Y124.943 E.01301
G1 X118.698 Y125.563 E.02845
G1 X118.285 Y125.787 E.01474
G1 X117.523 Y125.996 E.02477
G1 X102.542 Y125.996 E.4697
G1 X101.491 Y125.643 E.03476
G1 X101.16 Y125.392 E.01301
G1 X100.54 Y124.73 E.02845
G1 X100.316 Y124.317 E.01474
G1 X100.108 Y123.555 E.02477
G1 X100.108 Y101.109 E.70375
G1 X100.461 Y100.059 E.03476
G1 X100.711 Y99.728 E.01301
G1 X101.374 Y99.107 E.02845
G1 X101.787 Y98.884 E.01474
G1 X102.549 Y98.675 E.02478
G1 X117.525 Y98.679 E.46956
G1 X118.05 Y98.79 E.01681
G1 X118.581 Y99.031 E.01829
G1 X119.358 Y99.724 E.03263
G1 X119.752 Y100.344 E.02306
G1 X119.964 Y101.116 E.0251
G1 X119.964 Y102.242 E.03531
G1 X119.587 Y102.242 F9000
G1 F1200
G1 X119.587 Y123.531 E.66748
G1 X119.291 Y124.411 E.02912
G1 X119.089 Y124.681 E.01059
G1 X118.493 Y125.246 E.02573
G1 X118.16 Y125.431 E.01196
G1 X117.496 Y125.619 E.02162
G1 X102.573 Y125.619 E.4679
G1 X101.693 Y125.323 E.02912
G1 X101.422 Y125.12 E.01059
G1 X100.858 Y124.525 E.02573
G1 X100.673 Y124.191 E.01196
